; G-Code generated by Simplify3D(R) Version 4.0.0
; Jan 17, 2020 at 1:10:42 PM
; Settings Summary
;   processName,Process1
;   applyToModels,FretBoardWireManager2.1
;   profileName,F400_0.4_ASA(2) (modified)
;   profileVersion,2019-07-09 15:25:06
;   baseProfile,F400_ABS
;   printMaterial,
;   printQuality,Standard
;   printExtruders,
;   extruderName,Primary Extruder
;   extruderToolheadNumber,0
;   extruderDiameter,0.4
;   extruderAutoWidth,0
;   extruderWidth,0.5
;   extrusionMultiplier,1
;   extruderUseRetract,1
;   extruderRetractionDistance,4
;   extruderExtraRestartDistance,0.05
;   extruderRetractionZLift,0.1
;   extruderRetractionSpeed,3600
;   extruderUseCoasting,0
;   extruderCoastingDistance,0.5
;   extruderUseWipe,0
;   extruderWipeDistance,5
;   primaryExtruder,0
;   layerHeight,0.2
;   topSolidLayers,5
;   bottomSolidLayers,5
;   perimeterOutlines,4
;   printPerimetersInsideOut,1
;   startPointOption,2
;   startPointOriginX,0
;   startPointOriginY,360
;   sequentialIslands,0
;   spiralVaseMode,0
;   firstLayerHeightPercentage,100
;   firstLayerWidthPercentage,100
;   firstLayerUnderspeed,0.4
;   useRaft,0
;   raftExtruder,0
;   raftTopLayers,2
;   raftBaseLayers,0
;   raftOffset,4
;   raftSeparationDistance,0.15
;   raftTopInfill,100
;   aboveRaftSpeedMultiplier,0.3
;   useSkirt,1
;   skirtExtruder,0
;   skirtLayers,1
;   skirtOutlines,10
;   skirtOffset,0
;   usePrimePillar,0
;   primePillarExtruder,999
;   primePillarWidth,12
;   primePillarLocation,7
;   primePillarSpeedMultiplier,1
;   useOozeShield,0
;   oozeShieldExtruder,999
;   oozeShieldOffset,2
;   oozeShieldOutlines,1
;   oozeShieldSidewallShape,1
;   oozeShieldSidewallAngle,30
;   oozeShieldSpeedMultiplier,1
;   infillExtruder,0
;   internalInfillPattern,Rectilinear
;   externalInfillPattern,Rectilinear
;   infillPercentage,33
;   outlineOverlapPercentage,30
;   infillExtrusionWidthPercentage,100
;   minInfillLength,5
;   infillLayerInterval,1
;   internalInfillAngles,45,-45
;   overlapInternalInfillAngles,0
;   externalInfillAngles,45,-45
;   generateSupport,1
;   supportExtruder,0
;   supportInfillPercentage,23
;   supportExtraInflation,0.5
;   supportBaseLayers,0
;   denseSupportExtruder,0
;   denseSupportLayers,0
;   denseSupportInfillPercentage,70
;   supportLayerInterval,1
;   supportHorizontalPartOffset,0.35
;   supportUpperSeparationLayers,1
;   supportLowerSeparationLayers,1
;   supportType,0
;   supportGridSpacing,2
;   maxOverhangAngle,45
;   supportAngles,0
;   temperatureName,Primary Extruder,Heated Bed
;   temperatureNumber,0,2
;   temperatureSetpointCount,1,1
;   temperatureSetpointLayers,1,1
;   temperatureSetpointTemperatures,245,100
;   temperatureStabilizeAtStartup,0,0
;   temperatureHeatedBed,0,1
;   temperatureRelayBetweenLayers,0,0
;   temperatureRelayBetweenLoops,0,0
;   fanLayers,1,7
;   fanSpeeds,0,10
;   blipFanToFullPower,0
;   adjustSpeedForCooling,1
;   minSpeedLayerTime,5
;   minCoolingSpeedSlowdown,20
;   increaseFanForCooling,1
;   minFanLayerTime,13
;   maxCoolingFanSpeed,70
;   increaseFanForBridging,0
;   bridgingFanSpeed,65
;   use5D,1
;   relativeEdistances,1
;   allowEaxisZeroing,1
;   independentExtruderAxes,0
;   includeM10123,0
;   stickySupport,1
;   applyToolheadOffsets,0
;   gcodeXoffset,0
;   gcodeYoffset,0
;   gcodeZoffset,-0.05
;   overrideMachineDefinition,1
;   machineTypeOverride,0
;   strokeXoverride,355
;   strokeYoverride,355
;   strokeZoverride,315
;   originOffsetXoverride,0
;   originOffsetYoverride,0
;   originOffsetZoverride,0
;   homeXdirOverride,1
;   homeYdirOverride,-1
;   homeZdirOverride,1
;   flipXoverride,1
;   flipYoverride,-1
;   flipZoverride,1
;   toolheadOffsets,0,0|0,0|0,0|0,0|0,0|0,0
;   overrideFirmwareConfiguration,1
;   firmwareTypeOverride,RepRap (Marlin/Repetier/Sprinter)
;   GPXconfigOverride,r2
;   baudRateOverride,115200
;   overridePrinterModels,0
;   printerModelsOverride
;   startingGcode,M104 S0 ;cancel S3D set temp,G21  ; set units to mm,G90  ; use absolute coordinates,T0  ; select tool 0,G92 E0.0  ; reset e count,M220 S100 ; reset speed multiplier,M140 S[bed2_temperature]  ; set bed temperature and do not wait,G28  ; home all axes,G1 X10 Y10 Z10 F4000,M190 S[bed2_temperature]  ; set bed temperature and wait,G32  ; probe bed ,M109 S[extruder0_temperature]  ; set print head temperature and wait,; === pause for heating ===,M42 P63 S0,G4 P50,G4 P50,M42 P63 S1,G1 Z10.0 F900  ; move up,G1 E30.0 F500  ; prime extruder,G1 Y15 F9000  ; move back,G1 Z0.2 F1000  ; move down to begin wipe,G1 X110 E4.0 F10000  ; wipe print head (extrude material while we do this),G92 E0.0  ; reset e count
;   layerChangeGcode,
;   retractionGcode,
;   toolChangeGcode,
;   endingGcode,G91  ;relative positioning,G1 E-5.00 F1000  ;retract 5mm of filament,G1 Z+1.00 X-20.0 Y+20.0 F20000  ;short quick move to disengage from print,G90  ;absolute positioning,G1 X0.0 Y345.0 F9000  ; move head to back left corner,G91  ; relative positioning,G1 E-5.00 F500  ;retract additional filament to prevent oozing,G90 ;absolute positioning,M104 S0  ;turn off hotend,M140 S0  ;turn off heatbed,M42 P63 S0,G4 P50,G4 P50,M42 P63 S1,G1 Z315 F1000 ;move print bed down to idle position,M106 S0  ; shut off blower,M84  ;motors off,M561  ;clear bed probe transformation
;   exportFileFormat,gcode
;   celebration,0
;   celebrationSong,Random Song
;   postProcessing,
;   defaultSpeed,6600
;   outlineUnderspeed,0.7
;   solidInfillUnderspeed,0.7
;   supportUnderspeed,1
;   rapidXYspeed,4000
;   rapidZspeed,6800
;   minBridgingArea,50
;   bridgingExtraInflation,0
;   bridgingExtrusionMultiplier,0.9
;   bridgingSpeedMultiplier,0.6
;   useFixedBridgingAngle,0
;   fixedBridgingAngle,0
;   applyBridgingToPerimeters,0
;   filamentDiameters,1.7|1.7|1.7|1.7|1.7|1.7
;   filamentPricesPerKg,46|46|46|46|46|46
;   filamentDensities,1.25|1.25|1.25|1.25|1.25|1.25
;   useMinPrintHeight,0
;   minPrintHeight,13
;   useMaxPrintHeight,0
;   maxPrintHeight,13
;   useDiaphragm,0
;   diaphragmLayerInterval,20
;   robustSlicing,1
;   mergeAllIntoSolid,0
;   onlyRetractWhenCrossingOutline,1
;   retractBetweenLayers,0
;   useRetractionMinTravel,0
;   retractionMinTravel,1
;   retractWhileWiping,0
;   onlyWipeOutlines,1
;   avoidCrossingOutline,0
;   maxMovementDetourFactor,3
;   toolChangeRetractionDistance,0
;   toolChangeExtraRestartDistance,0
;   toolChangeRetractionSpeed,360
;   externalThinWallType,1
;   internalThinWallType,1
;   thinWallAllowedOverlapPercentage,50
;   singleExtrusionMinLength,1
;   singleExtrusionMinPrintingWidthPercentage,50
;   singleExtrusionMaxPrintingWidthPercentage,200
;   singleExtrusionEndpointExtension,0.2
;   horizontalSizeCompensation,0
G90
M83
M106 S0
M104 S0 ;cancel S3D set temp
G21  ; set units to mm
G90  ; use absolute coordinates
T0  ; select tool 0
G92 E0.0  ; reset e count
M220 S100 ; reset speed multiplier
M140 S100  ; set bed temperature and do not wait
G28  ; home all axes
G1 X10 Y10 Z10 F4000
M190 S100  ; set bed temperature and wait
G32  ; probe bed 
M109 S245  ; set print head temperature and wait
; === pause for heating ===
M42 P63 S0
G4 P50
G4 P50
M42 P63 S1
G1 Z10.0 F900  ; move up
G1 E30.0 F500  ; prime extruder
G1 Y15 F9000  ; move back
G1 Z0.2 F1000  ; move down to begin wipe
G1 X110 E4.0 F10000  ; wipe print head (extrude material while we do this)
G92 E0.0  ; reset e count
G1 E-4.0000 F3600
G1 Z0.250 F6800
; process Process1
; layer 1, Z = 0.200
T0
; tool H0.200 W0.500
; skirt
G1 X165.903 Y162.951 F4000
G1 Z0.150 F6800
G1 E4.0500 F1080
G1 X166.167 Y162.687 E0.0164 F2640
G1 X166.691 Y162.242 E0.0303
G1 X166.993 Y162.023 E0.0165
G1 X167.580 Y161.665 E0.0303
G1 X167.913 Y161.496 E0.0165
G1 X168.549 Y161.234 E0.0303
G1 X168.904 Y161.119 E0.0165
G1 X169.571 Y160.961 E0.0302
G1 X169.936 Y160.903 E0.0163
G1 X170.521 Y160.857 E0.0259
G1 X170.707 Y160.850 E0.0082
G1 X184.298 Y160.850 E0.5988
G1 X184.487 Y160.858 E0.0084
G1 X185.081 Y160.905 E0.0262
G1 X185.450 Y160.964 E0.0165
G1 X186.118 Y161.126 E0.0303
G1 X186.473 Y161.242 E0.0165
G1 X187.108 Y161.506 E0.0303
G1 X187.440 Y161.676 E0.0164
G1 X188.025 Y162.036 E0.0303
G1 X188.327 Y162.256 E0.0165
G1 X188.849 Y162.703 E0.0303
G1 X189.113 Y162.967 E0.0164
G1 X189.558 Y163.491 E0.0303
G1 X189.777 Y163.794 E0.0165
G1 X190.135 Y164.380 E0.0303
G1 X190.304 Y164.713 E0.0164
G1 X190.566 Y165.349 E0.0303
G1 X190.681 Y165.704 E0.0164
G1 X190.839 Y166.371 E0.0302
G1 X190.897 Y166.736 E0.0163
G1 X190.943 Y167.321 E0.0259
G1 X190.950 Y167.507 E0.0082
G1 X190.950 Y185.167 E0.7781
G1 X189.850 Y186.268 E0.0685
G1 X189.850 Y187.345 E0.0475
G1 X189.127 Y189.091 E0.0833
G1 X184.791 Y193.427 E0.2702
G1 X183.045 Y194.150 E0.0833
G1 X175.355 Y194.150 E0.3388
G1 X173.609 Y193.427 E0.0833
G1 X169.273 Y189.091 E0.2702
G1 X168.801 Y187.950 E0.0544
G1 X166.832 Y187.950 E0.0867
G1 X164.050 Y185.167 E0.1734
G1 X164.050 Y167.502 E0.7783
G1 X164.058 Y167.313 E0.0084
G1 X164.105 Y166.719 E0.0262
G1 X164.164 Y166.350 E0.0164
G1 X164.326 Y165.682 E0.0303
G1 X164.442 Y165.327 E0.0165
G1 X164.706 Y164.692 E0.0303
G1 X164.876 Y164.360 E0.0164
G1 X165.236 Y163.774 E0.0303
G1 X165.456 Y163.473 E0.0165
G1 X165.903 Y162.951 E0.0303
G1 X166.270 Y163.291 F4000
G1 X166.506 Y163.055 E0.0147 F2640
G1 X167.000 Y162.635 E0.0286
G1 X167.271 Y162.439 E0.0147
G1 X167.824 Y162.102 E0.0286
G1 X168.122 Y161.951 E0.0147
G1 X168.721 Y161.704 E0.0285
G1 X169.039 Y161.601 E0.0147
G1 X169.668 Y161.451 E0.0285
G1 X169.994 Y161.400 E0.0146
G1 X170.551 Y161.357 E0.0246
G1 X170.717 Y161.350 E0.0073
G1 X184.288 Y161.350 E0.5979
G1 X184.457 Y161.357 E0.0075
G1 X185.021 Y161.402 E0.0249
G1 X185.351 Y161.455 E0.0147
G1 X185.982 Y161.607 E0.0286
G1 X186.299 Y161.711 E0.0147
G1 X186.898 Y161.960 E0.0285
G1 X187.195 Y162.112 E0.0147
G1 X187.747 Y162.451 E0.0285
G1 X188.017 Y162.648 E0.0147
G1 X188.509 Y163.070 E0.0286
G1 X188.745 Y163.306 E0.0147
G1 X189.165 Y163.800 E0.0286
G1 X189.361 Y164.071 E0.0147
G1 X189.698 Y164.624 E0.0286
G1 X189.849 Y164.922 E0.0147
G1 X190.096 Y165.521 E0.0285
G1 X190.199 Y165.839 E0.0147
G1 X190.349 Y166.468 E0.0285
G1 X190.400 Y166.794 E0.0146
G1 X190.444 Y167.351 E0.0246
G1 X190.450 Y167.517 E0.0073
G1 X190.450 Y184.960 E0.7685
G1 X189.350 Y186.060 E0.0685
G1 X189.350 Y187.245 E0.0522
G1 X188.703 Y188.807 E0.0745
G1 X184.507 Y193.003 E0.2614
G1 X182.945 Y193.650 E0.0745
G1 X175.455 Y193.650 E0.3300
G1 X173.893 Y193.003 E0.0745
G1 X169.697 Y188.807 E0.2614
G1 X169.135 Y187.450 E0.0647
G1 X167.040 Y187.450 E0.0923
G1 X164.550 Y184.960 E0.1551
G1 X164.550 Y167.512 E0.7687
G1 X164.557 Y167.343 E0.0075
G1 X164.602 Y166.778 E0.0249
G1 X164.655 Y166.449 E0.0147
G1 X164.807 Y165.819 E0.0286
G1 X164.911 Y165.501 E0.0147
G1 X165.160 Y164.903 E0.0286
G1 X165.312 Y164.605 E0.0147
G1 X165.651 Y164.053 E0.0286
G1 X165.848 Y163.783 E0.0147
G1 X166.270 Y163.291 E0.0286
G1 X166.637 Y163.631 F4000
G1 X166.846 Y163.423 E0.0130 F2640
G1 X167.309 Y163.029 E0.0268
G1 X167.548 Y162.856 E0.0130
G1 X168.068 Y162.539 E0.0268
G1 X168.330 Y162.405 E0.0130
G1 X168.893 Y162.174 E0.0268
G1 X169.174 Y162.083 E0.0130
G1 X169.764 Y161.942 E0.0267
G1 X170.052 Y161.897 E0.0128
G1 X170.580 Y161.856 E0.0233
G1 X170.727 Y161.850 E0.0065
G1 X184.278 Y161.850 E0.5970
G1 X184.427 Y161.856 E0.0066
G1 X184.962 Y161.899 E0.0236
G1 X185.253 Y161.945 E0.0130
G1 X185.845 Y162.088 E0.0268
G1 X186.125 Y162.180 E0.0130
G1 X186.687 Y162.414 E0.0268
G1 X186.950 Y162.548 E0.0130
G1 X187.468 Y162.867 E0.0268
G1 X187.706 Y163.041 E0.0130
G1 X188.169 Y163.437 E0.0268
G1 X188.377 Y163.645 E0.0130
G1 X188.771 Y164.109 E0.0268
G1 X188.944 Y164.348 E0.0130
G1 X189.261 Y164.868 E0.0268
G1 X189.395 Y165.131 E0.0130
G1 X189.627 Y165.693 E0.0268
G1 X189.717 Y165.974 E0.0130
G1 X189.858 Y166.564 E0.0267
G1 X189.903 Y166.853 E0.0128
G1 X189.944 Y167.380 E0.0233
G1 X189.950 Y167.527 E0.0065
G1 X189.950 Y184.753 E0.7590
G1 X188.850 Y185.853 E0.0685
G1 X188.850 Y187.146 E0.0569
G1 X188.279 Y188.524 E0.0657
G1 X184.224 Y192.579 E0.2526
G1 X182.846 Y193.150 E0.0657
G1 X175.554 Y193.150 E0.3213
G1 X174.176 Y192.579 E0.0657
G1 X170.121 Y188.524 E0.2526
G1 X169.550 Y187.146 E0.0657
G1 X169.550 Y186.950 E0.0086
G1 X167.247 Y186.950 E0.1015
G1 X165.050 Y184.753 E0.1369
G1 X165.050 Y167.522 E0.7591
G1 X165.056 Y167.372 E0.0066
G1 X165.099 Y166.838 E0.0236
G1 X165.145 Y166.547 E0.0130
G1 X165.288 Y165.955 E0.0268
G1 X165.380 Y165.675 E0.0130
G1 X165.614 Y165.113 E0.0268
G1 X165.748 Y164.850 E0.0130
G1 X166.067 Y164.332 E0.0268
G1 X166.241 Y164.094 E0.0130
G1 X166.637 Y163.631 E0.0268
G1 X167.004 Y163.972 F4000
G1 X167.185 Y163.791 E0.0113 F2640
G1 X167.618 Y163.422 E0.0251
G1 X167.825 Y163.272 E0.0113
G1 X168.311 Y162.976 E0.0251
G1 X168.539 Y162.860 E0.0113
G1 X169.066 Y162.643 E0.0251
G1 X169.309 Y162.565 E0.0113
G1 X169.861 Y162.433 E0.0250
G1 X170.111 Y162.394 E0.0111
G1 X170.609 Y162.355 E0.0220
G1 X170.736 Y162.350 E0.0056
G1 X184.268 Y162.350 E0.5961
G1 X184.397 Y162.355 E0.0057
G1 X184.902 Y162.396 E0.0223
G1 X185.155 Y162.436 E0.0113
G1 X185.708 Y162.570 E0.0251
G1 X185.951 Y162.649 E0.0113
G1 X186.477 Y162.868 E0.0251
G1 X186.704 Y162.984 E0.0112
G1 X187.189 Y163.282 E0.0251
G1 X187.396 Y163.433 E0.0113
G1 X187.828 Y163.804 E0.0251
G1 X188.009 Y163.985 E0.0113
G1 X188.378 Y164.418 E0.0251
G1 X188.528 Y164.625 E0.0113
G1 X188.824 Y165.111 E0.0251
G1 X188.940 Y165.339 E0.0113
G1 X189.157 Y165.866 E0.0251
G1 X189.235 Y166.109 E0.0113
G1 X189.367 Y166.661 E0.0250
G1 X189.406 Y166.911 E0.0111
G1 X189.445 Y167.409 E0.0220
G1 X189.450 Y167.536 E0.0056
G1 X189.450 Y184.546 E0.7494
G1 X188.350 Y185.646 E0.0685
G1 X188.350 Y187.046 E0.0617
G1 X187.855 Y188.241 E0.0570
G1 X183.941 Y192.155 E0.2439
G1 X182.746 Y192.650 E0.0570
G1 X175.653 Y192.650 E0.3125
G1 X174.459 Y192.155 E0.0570
G1 X170.545 Y188.241 E0.2439
G1 X170.050 Y187.046 E0.0570
G1 X170.050 Y186.450 E0.0263
G1 X167.454 Y186.450 E0.1144
G1 X165.550 Y184.546 E0.1186
G1 X165.550 Y167.532 E0.7496
G1 X165.555 Y167.402 E0.0057
G1 X165.596 Y166.897 E0.0223
G1 X165.636 Y166.645 E0.0113
G1 X165.770 Y166.092 E0.0251
G1 X165.849 Y165.849 E0.0113
G1 X166.068 Y165.323 E0.0251
G1 X166.184 Y165.096 E0.0113
G1 X166.482 Y164.611 E0.0251
G1 X166.633 Y164.404 E0.0113
G1 X167.004 Y163.972 E0.0251
G1 X167.371 Y164.312 F4000
G1 X167.524 Y164.159 E0.0095 F2640
G1 X167.927 Y163.816 E0.0234
G1 X168.102 Y163.689 E0.0095
G1 X168.555 Y163.413 E0.0234
G1 X168.748 Y163.315 E0.0095
G1 X169.238 Y163.113 E0.0234
G1 X169.444 Y163.047 E0.0095
G1 X169.958 Y162.924 E0.0233
G1 X170.169 Y162.891 E0.0094
G1 X170.639 Y162.854 E0.0207
G1 X170.746 Y162.850 E0.0047
G1 X184.258 Y162.850 E0.5953
G1 X184.367 Y162.855 E0.0048
G1 X184.843 Y162.893 E0.0210
G1 X185.057 Y162.927 E0.0095
G1 X185.572 Y163.051 E0.0234
G1 X185.777 Y163.118 E0.0095
G1 X186.267 Y163.322 E0.0234
G1 X186.459 Y163.420 E0.0095
G1 X186.911 Y163.698 E0.0234
G1 X187.086 Y163.826 E0.0095
G1 X187.488 Y164.170 E0.0234
G1 X187.641 Y164.324 E0.0095
G1 X187.984 Y164.727 E0.0234
G1 X188.111 Y164.903 E0.0095
G1 X188.387 Y165.355 E0.0234
G1 X188.485 Y165.548 E0.0095
G1 X188.687 Y166.038 E0.0234
G1 X188.753 Y166.244 E0.0095
G1 X188.876 Y166.758 E0.0233
G1 X188.909 Y166.969 E0.0094
G1 X188.946 Y167.439 E0.0207
G1 X188.950 Y167.546 E0.0047
G1 X188.950 Y184.339 E0.7398
G1 X187.850 Y185.439 E0.0685
G1 X187.850 Y186.947 E0.0664
G1 X187.431 Y187.958 E0.0482
G1 X183.658 Y191.731 E0.2351
G1 X182.647 Y192.150 E0.0482
G1 X175.753 Y192.150 E0.3037
G1 X174.742 Y191.731 E0.0482
G1 X170.969 Y187.958 E0.2351
G1 X170.550 Y186.947 E0.0482
G1 X170.550 Y185.950 E0.0439
G1 X167.661 Y185.950 E0.1273
G1 X166.050 Y184.339 E0.1004
G1 X166.050 Y167.542 E0.7400
G1 X166.054 Y167.432 E0.0048
G1 X166.093 Y166.957 E0.0210
G1 X166.127 Y166.744 E0.0095
G1 X166.251 Y166.228 E0.0234
G1 X166.318 Y166.023 E0.0095
G1 X166.522 Y165.533 E0.0234
G1 X166.620 Y165.341 E0.0095
G1 X166.898 Y164.889 E0.0234
G1 X167.026 Y164.714 E0.0095
G1 X167.371 Y164.312 E0.0234
G1 X167.737 Y164.652 F4000
G1 X167.863 Y164.527 E0.0078 F2640
G1 X168.236 Y164.209 E0.0216
G1 X168.380 Y164.106 E0.0078
G1 X168.799 Y163.850 E0.0216
