; G-Code generated by Simplify3D(R) Version 4.0.0
; Jan 17, 2020 at 1:12:03 PM
; Settings Summary
;   processName,Process1
;   applyToModels,PCBmount2.1
;   profileName,F400_0.4_ASA(2) (modified)
;   profileVersion,2019-07-09 15:25:06
;   baseProfile,F400_ABS
;   printMaterial,
;   printQuality,Standard
;   printExtruders,
;   extruderName,Primary Extruder
;   extruderToolheadNumber,0
;   extruderDiameter,0.4
;   extruderAutoWidth,0
;   extruderWidth,0.5
;   extrusionMultiplier,1
;   extruderUseRetract,1
;   extruderRetractionDistance,4
;   extruderExtraRestartDistance,0.05
;   extruderRetractionZLift,0.1
;   extruderRetractionSpeed,3600
;   extruderUseCoasting,0
;   extruderCoastingDistance,0.5
;   extruderUseWipe,0
;   extruderWipeDistance,5
;   primaryExtruder,0
;   layerHeight,0.2
;   topSolidLayers,5
;   bottomSolidLayers,5
;   perimeterOutlines,4
;   printPerimetersInsideOut,1
;   startPointOption,2
;   startPointOriginX,0
;   startPointOriginY,360
;   sequentialIslands,0
;   spiralVaseMode,0
;   firstLayerHeightPercentage,100
;   firstLayerWidthPercentage,100
;   firstLayerUnderspeed,0.4
;   useRaft,0
;   raftExtruder,0
;   raftTopLayers,2
;   raftBaseLayers,0
;   raftOffset,4
;   raftSeparationDistance,0.15
;   raftTopInfill,100
;   aboveRaftSpeedMultiplier,0.3
;   useSkirt,1
;   skirtExtruder,0
;   skirtLayers,1
;   skirtOutlines,10
;   skirtOffset,0
;   usePrimePillar,0
;   primePillarExtruder,999
;   primePillarWidth,12
;   primePillarLocation,7
;   primePillarSpeedMultiplier,1
;   useOozeShield,0
;   oozeShieldExtruder,999
;   oozeShieldOffset,2
;   oozeShieldOutlines,1
;   oozeShieldSidewallShape,1
;   oozeShieldSidewallAngle,30
;   oozeShieldSpeedMultiplier,1
;   infillExtruder,0
;   internalInfillPattern,Rectilinear
;   externalInfillPattern,Rectilinear
;   infillPercentage,33
;   outlineOverlapPercentage,30
;   infillExtrusionWidthPercentage,100
;   minInfillLength,5
;   infillLayerInterval,1
;   internalInfillAngles,45,-45
;   overlapInternalInfillAngles,0
;   externalInfillAngles,45,-45
;   generateSupport,1
;   supportExtruder,0
;   supportInfillPercentage,23
;   supportExtraInflation,0.5
;   supportBaseLayers,0
;   denseSupportExtruder,0
;   denseSupportLayers,0
;   denseSupportInfillPercentage,70
;   supportLayerInterval,1
;   supportHorizontalPartOffset,0.35
;   supportUpperSeparationLayers,1
;   supportLowerSeparationLayers,1
;   supportType,0
;   supportGridSpacing,2
;   maxOverhangAngle,45
;   supportAngles,0
;   temperatureName,Primary Extruder,Heated Bed
;   temperatureNumber,0,2
;   temperatureSetpointCount,1,1
;   temperatureSetpointLayers,1,1
;   temperatureSetpointTemperatures,245,100
;   temperatureStabilizeAtStartup,0,0
;   temperatureHeatedBed,0,1
;   temperatureRelayBetweenLayers,0,0
;   temperatureRelayBetweenLoops,0,0
;   fanLayers,1,7
;   fanSpeeds,0,10
;   blipFanToFullPower,0
;   adjustSpeedForCooling,1
;   minSpeedLayerTime,5
;   minCoolingSpeedSlowdown,20
;   increaseFanForCooling,1
;   minFanLayerTime,13
;   maxCoolingFanSpeed,70
;   increaseFanForBridging,0
;   bridgingFanSpeed,65
;   use5D,1
;   relativeEdistances,1
;   allowEaxisZeroing,1
;   independentExtruderAxes,0
;   includeM10123,0
;   stickySupport,1
;   applyToolheadOffsets,0
;   gcodeXoffset,0
;   gcodeYoffset,0
;   gcodeZoffset,-0.05
;   overrideMachineDefinition,1
;   machineTypeOverride,0
;   strokeXoverride,355
;   strokeYoverride,355
;   strokeZoverride,315
;   originOffsetXoverride,0
;   originOffsetYoverride,0
;   originOffsetZoverride,0
;   homeXdirOverride,1
;   homeYdirOverride,-1
;   homeZdirOverride,1
;   flipXoverride,1
;   flipYoverride,-1
;   flipZoverride,1
;   toolheadOffsets,0,0|0,0|0,0|0,0|0,0|0,0
;   overrideFirmwareConfiguration,1
;   firmwareTypeOverride,RepRap (Marlin/Repetier/Sprinter)
;   GPXconfigOverride,r2
;   baudRateOverride,115200
;   overridePrinterModels,0
;   printerModelsOverride
;   startingGcode,M104 S0 ;cancel S3D set temp,G21  ; set units to mm,G90  ; use absolute coordinates,T0  ; select tool 0,G92 E0.0  ; reset e count,M220 S100 ; reset speed multiplier,M140 S[bed2_temperature]  ; set bed temperature and do not wait,G28  ; home all axes,G1 X10 Y10 Z10 F4000,M190 S[bed2_temperature]  ; set bed temperature and wait,G32  ; probe bed ,M109 S[extruder0_temperature]  ; set print head temperature and wait,; === pause for heating ===,M42 P63 S0,G4 P50,G4 P50,M42 P63 S1,G1 Z10.0 F900  ; move up,G1 E30.0 F500  ; prime extruder,G1 Y15 F9000  ; move back,G1 Z0.2 F1000  ; move down to begin wipe,G1 X110 E4.0 F10000  ; wipe print head (extrude material while we do this),G92 E0.0  ; reset e count
;   layerChangeGcode,
;   retractionGcode,
;   toolChangeGcode,
;   endingGcode,G91  ;relative positioning,G1 E-5.00 F1000  ;retract 5mm of filament,G1 Z+1.00 X-20.0 Y+20.0 F20000  ;short quick move to disengage from print,G90  ;absolute positioning,G1 X0.0 Y345.0 F9000  ; move head to back left corner,G91  ; relative positioning,G1 E-5.00 F500  ;retract additional filament to prevent oozing,G90 ;absolute positioning,M104 S0  ;turn off hotend,M140 S0  ;turn off heatbed,M42 P63 S0,G4 P50,G4 P50,M42 P63 S1,G1 Z315 F1000 ;move print bed down to idle position,M106 S0  ; shut off blower,M84  ;motors off,M561  ;clear bed probe transformation
;   exportFileFormat,gcode
;   celebration,0
;   celebrationSong,Random Song
;   postProcessing,
;   defaultSpeed,6600
;   outlineUnderspeed,0.7
;   solidInfillUnderspeed,0.7
;   supportUnderspeed,1
;   rapidXYspeed,4000
;   rapidZspeed,6800
;   minBridgingArea,50
;   bridgingExtraInflation,0
;   bridgingExtrusionMultiplier,0.9
;   bridgingSpeedMultiplier,0.6
;   useFixedBridgingAngle,0
;   fixedBridgingAngle,0
;   applyBridgingToPerimeters,0
;   filamentDiameters,1.7|1.7|1.7|1.7|1.7|1.7
;   filamentPricesPerKg,46|46|46|46|46|46
;   filamentDensities,1.25|1.25|1.25|1.25|1.25|1.25
;   useMinPrintHeight,0
;   minPrintHeight,13
;   useMaxPrintHeight,0
;   maxPrintHeight,13
;   useDiaphragm,0
;   diaphragmLayerInterval,20
;   robustSlicing,1
;   mergeAllIntoSolid,0
;   onlyRetractWhenCrossingOutline,1
;   retractBetweenLayers,0
;   useRetractionMinTravel,0
;   retractionMinTravel,1
;   retractWhileWiping,0
;   onlyWipeOutlines,1
;   avoidCrossingOutline,0
;   maxMovementDetourFactor,3
;   toolChangeRetractionDistance,0
;   toolChangeExtraRestartDistance,0
;   toolChangeRetractionSpeed,360
;   externalThinWallType,1
;   internalThinWallType,1
;   thinWallAllowedOverlapPercentage,50
;   singleExtrusionMinLength,1
;   singleExtrusionMinPrintingWidthPercentage,50
;   singleExtrusionMaxPrintingWidthPercentage,200
;   singleExtrusionEndpointExtension,0.2
;   horizontalSizeCompensation,0
G90
M83
M106 S0
M104 S0 ;cancel S3D set temp
G21  ; set units to mm
G90  ; use absolute coordinates
T0  ; select tool 0
G92 E0.0  ; reset e count
M220 S100 ; reset speed multiplier
M140 S100  ; set bed temperature and do not wait
G28  ; home all axes
G1 X10 Y10 Z10 F4000
M190 S100  ; set bed temperature and wait
G32  ; probe bed 
M109 S245  ; set print head temperature and wait
; === pause for heating ===
M42 P63 S0
G4 P50
G4 P50
M42 P63 S1
G1 Z10.0 F900  ; move up
G1 E30.0 F500  ; prime extruder
G1 Y15 F9000  ; move back
G1 Z0.2 F1000  ; move down to begin wipe
G1 X110 E4.0 F10000  ; wipe print head (extrude material while we do this)
G92 E0.0  ; reset e count
G1 E-4.0000 F3600
G1 Z0.250 F6800
; process Process1
; layer 1, Z = 0.200
T0
; tool H0.200 W0.500
; skirt
G1 X179.308 Y153.638 F4000
G1 Z0.150 F6800
G1 E4.0500 F1080
G1 X182.092 Y150.850 E0.1736 F2640
G1 X191.268 Y150.850 E0.4043
G1 X194.050 Y153.632 E0.1734
G1 X194.050 Y158.768 E0.2262
G1 X191.268 Y161.550 E0.1734
G1 X190.850 Y161.550 E0.0184
G1 X190.850 Y187.250 E1.1323
G1 X191.268 Y187.250 E0.0184
G1 X194.050 Y190.033 E0.1734
G1 X194.050 Y195.168 E0.2262
G1 X191.267 Y197.950 E0.1734
G1 X186.499 Y197.950 E0.2101
G1 X186.027 Y199.091 E0.0544
G1 X181.691 Y203.427 E0.2702
G1 X179.945 Y204.150 E0.0833
G1 X172.255 Y204.150 E0.3388
G1 X170.509 Y203.427 E0.0833
G1 X166.173 Y199.091 E0.2702
G1 X165.701 Y197.950 E0.0544
G1 X163.732 Y197.950 E0.0867
G1 X160.950 Y195.168 E0.1734
G1 X160.950 Y186.032 E0.4025
G1 X161.582 Y185.400 E0.0394
G1 X160.950 Y184.768 E0.0394
G1 X160.950 Y178.432 E0.2791
G1 X163.732 Y175.650 E0.1734
G1 X179.343 Y175.650 E0.6877
G1 X179.308 Y153.638 E0.9698
G1 X179.808 Y153.844 F4000
G1 X182.299 Y151.350 E0.1553 F2640
G1 X191.060 Y151.350 E0.3860
G1 X193.550 Y153.840 E0.1551
G1 X193.550 Y158.560 E0.2080
G1 X191.060 Y161.050 E0.1551
G1 X190.350 Y161.050 E0.0313
G1 X190.350 Y187.750 E1.1763
G1 X191.060 Y187.750 E0.0313
G1 X193.550 Y190.240 E0.1551
G1 X193.550 Y194.961 E0.2080
G1 X191.060 Y197.450 E0.1551
G1 X186.165 Y197.450 E0.2157
G1 X185.603 Y198.807 E0.0647
G1 X181.407 Y203.003 E0.2614
G1 X179.845 Y203.650 E0.0745
G1 X172.355 Y203.650 E0.3300
G1 X170.793 Y203.003 E0.0745
G1 X166.597 Y198.807 E0.2614
G1 X166.035 Y197.450 E0.0647
G1 X163.940 Y197.450 E0.0923
G1 X161.450 Y194.960 E0.1551
G1 X161.450 Y186.240 E0.3842
G1 X162.290 Y185.400 E0.0523
G1 X161.450 Y184.560 E0.0523
G1 X161.450 Y178.640 E0.2609
G1 X163.940 Y176.150 E0.1551
G1 X179.843 Y176.150 E0.7007
G1 X179.808 Y153.844 E0.9827
G1 X180.309 Y154.051 F4000
G1 X182.506 Y151.850 E0.1370 F2640
G1 X190.853 Y151.850 E0.3677
G1 X193.050 Y154.047 E0.1369
G1 X193.050 Y158.353 E0.1897
G1 X190.853 Y160.550 E0.1369
G1 X189.850 Y160.550 E0.0442
G1 X189.850 Y188.250 E1.2204
G1 X190.853 Y188.250 E0.0442
G1 X193.050 Y190.447 E0.1369
G1 X193.050 Y194.753 E0.1897
G1 X190.853 Y196.950 E0.1369
G1 X185.750 Y196.950 E0.2248
G1 X185.750 Y197.146 E0.0086
G1 X185.179 Y198.524 E0.0657
G1 X181.124 Y202.579 E0.2526
G1 X179.746 Y203.150 E0.0657
G1 X172.454 Y203.150 E0.3213
G1 X171.076 Y202.579 E0.0657
G1 X167.021 Y198.524 E0.2526
G1 X166.450 Y197.146 E0.0657
G1 X166.450 Y196.950 E0.0086
G1 X164.147 Y196.950 E0.1015
G1 X161.950 Y194.753 E0.1369
G1 X161.950 Y186.447 E0.3660
G1 X162.997 Y185.400 E0.0652
G1 X161.950 Y184.353 E0.0652
G1 X161.950 Y178.847 E0.2426
G1 X164.147 Y176.650 E0.1369
G1 X180.344 Y176.650 E0.7136
G1 X180.309 Y154.051 E0.9956
G1 X180.809 Y154.257 F4000
G1 X182.714 Y152.350 E0.1187 F2640
G1 X190.646 Y152.350 E0.3495
G1 X192.550 Y154.254 E0.1186
G1 X192.550 Y158.146 E0.1715
G1 X190.646 Y160.050 E0.1186
G1 X189.350 Y160.050 E0.0571
G1 X189.350 Y188.750 E1.2644
G1 X190.646 Y188.750 E0.0571
G1 X192.550 Y190.654 E0.1186
G1 X192.550 Y194.546 E0.1715
G1 X190.646 Y196.450 E0.1186
G1 X185.250 Y196.450 E0.2377
G1 X185.250 Y197.046 E0.0263
G1 X184.755 Y198.241 E0.0570
G1 X180.841 Y202.155 E0.2439
G1 X179.646 Y202.650 E0.0570
G1 X172.553 Y202.650 E0.3125
G1 X171.359 Y202.155 E0.0570
G1 X167.445 Y198.241 E0.2439
G1 X166.950 Y197.046 E0.0570
G1 X166.950 Y196.450 E0.0263
G1 X164.354 Y196.450 E0.1144
G1 X162.450 Y194.546 E0.1186
G1 X162.450 Y186.654 E0.3477
G1 X163.704 Y185.400 E0.0781
G1 X162.450 Y184.146 E0.0781
G1 X162.450 Y179.054 E0.2244
G1 X164.354 Y177.150 E0.1186
G1 X180.845 Y177.150 E0.7265
G1 X180.809 Y154.257 E1.0086
G1 X181.309 Y154.464 F4000
G1 X182.921 Y152.850 E0.1005 F2640
G1 X190.439 Y152.850 E0.3312
G1 X192.050 Y154.461 E0.1004
G1 X192.050 Y157.939 E0.1532
G1 X190.439 Y159.550 E0.1004
G1 X188.850 Y159.550 E0.0700
G1 X188.850 Y189.250 E1.3085
G1 X190.439 Y189.250 E0.0700
G1 X192.050 Y190.861 E0.1004
G1 X192.050 Y194.339 E0.1532
G1 X190.439 Y195.950 E0.1004
G1 X184.750 Y195.950 E0.2506
G1 X184.750 Y196.947 E0.0439
G1 X184.331 Y197.958 E0.0482
G1 X180.558 Y201.731 E0.2351
G1 X179.547 Y202.150 E0.0482
G1 X172.653 Y202.150 E0.3037
G1 X171.642 Y201.731 E0.0482
G1 X167.869 Y197.958 E0.2351
G1 X167.450 Y196.947 E0.0482
G1 X167.450 Y195.950 E0.0439
G1 X164.561 Y195.950 E0.1273
G1 X162.950 Y194.339 E0.1004
G1 X162.950 Y186.861 E0.3295
G1 X164.411 Y185.400 E0.0910
G1 X162.950 Y183.939 E0.0910
G1 X162.950 Y179.261 E0.2061
G1 X164.561 Y177.650 E0.1004
G1 X181.346 Y177.650 E0.7395
G1 X181.309 Y154.464 E1.0215
G1 X181.810 Y154.671 F4000
G1 X183.128 Y153.350 E0.0822 F2640
G1 X190.232 Y153.350 E0.3130
G1 X191.550 Y154.668 E0.0821
G1 X191.550 Y157.732 E0.1350
G1 X190.232 Y159.050 E0.0821
G1 X188.350 Y159.050 E0.0829
G1 X188.350 Y189.750 E1.3525
G1 X190.232 Y189.750 E0.0829
G1 X191.550 Y191.068 E0.0821
G1 X191.550 Y194.132 E0.1350
G1 X190.232 Y195.450 E0.0821
G1 X184.250 Y195.450 E0.2635
G1 X184.250 Y196.848 E0.0616
G1 X183.907 Y197.675 E0.0394
G1 X180.274 Y201.307 E0.2264
G1 X179.447 Y201.650 E0.0394
G1 X172.752 Y201.650 E0.2950
G1 X171.925 Y201.307 E0.0394
G1 X168.292 Y197.675 E0.2264
G1 X167.950 Y196.848 E0.0394
G1 X167.950 Y195.450 E0.0616
G1 X164.768 Y195.450 E0.1402
G1 X163.450 Y194.132 E0.0821
G1 X163.450 Y187.068 E0.3112
G1 X164.768 Y185.750 E0.0821
G1 X167.650 Y185.750 E0.1270
G1 X167.650 Y185.050 E0.0308
G1 X164.768 Y185.050 E0.1270
G1 X163.450 Y183.732 E0.0821
G1 X163.450 Y179.468 E0.1879
G1 X164.768 Y178.150 E0.0821
G1 X181.846 Y178.150 E0.7524
G1 X181.810 Y154.671 E1.0344
G1 X182.310 Y154.877 F4000
G1 X183.336 Y153.850 E0.0639 F2640
G1 X190.025 Y153.850 E0.2947
G1 X191.050 Y154.875 E0.0639
G1 X191.050 Y157.525 E0.1167
G1 X190.025 Y158.550 E0.0639
G1 X187.850 Y158.550 E0.0958
G1 X187.850 Y190.250 E1.3966
G1 X190.025 Y190.250 E0.0958
G1 X191.050 Y191.275 E0.0639
G1 X191.050 Y193.925 E0.1167
G1 X190.025 Y194.950 E0.0639
G1 X183.725 Y194.950 E0.2776
G1 X183.750 Y194.975 E0.0016
G1 X183.750 Y196.748 E0.0781
G1 X183.484 Y197.391 E0.0307
G1 X179.991 Y200.884 E0.2176
G1 X179.348 Y201.150 E0.0307
G1 X172.852 Y201.150 E0.2862
G1 X172.209 Y200.884 E0.0307
G1 X168.716 Y197.391 E0.2176
G1 X168.450 Y196.748 E0.0307
G1 X168.450 Y194.975 E0.0781
G1 X168.475 Y194.950 E0.0016
G1 X164.975 Y194.950 E0.1542
G1 X163.950 Y193.925 E0.0639
G1 X163.950 Y187.275 E0.2930
G1 X164.975 Y186.250 E0.0639
G1 X167.625 Y186.250 E0.1167
G1 X168.150 Y186.775 E0.0327
G1 X168.150 Y184.025 E0.1212
G1 X167.625 Y184.550 E0.0327
G1 X164.975 Y184.550 E0.1167
G1 X163.950 Y183.525 E0.0639
G1 X163.950 Y179.675 E0.1696
G1 X164.975 Y178.650 E0.0639
G1 X182.347 Y178.650 E0.7654
G1 X182.310 Y154.877 E1.0474
G1 X182.810 Y155.084 F4000
G1 X183.543 Y154.350 E0.0457 F2640
G1 X189.818 Y154.350 E0.2765
G1 X190.550 Y155.082 E0.0456
G1 X190.550 Y157.318 E0.0985
G1 X189.818 Y158.050 E0.0456
G1 X187.350 Y158.050 E0.1087
G1 X187.350 Y190.750 E1.4407
G1 X189.818 Y190.750 E0.1087
G1 X190.550 Y191.482 E0.0456
G1 X190.550 Y193.718 E0.0985
G1 X189.818 Y194.450 E0.0456
G1 X182.518 Y194.450 E0.3216
G1 X183.250 Y195.182 E0.0456
G1 X183.250 Y196.649 E0.0646
G1 X183.060 Y197.108 E0.0219
G1 X179.708 Y200.460 E0.2088
G1 X179.249 Y200.650 E0.0219
G1 X172.951 Y200.650 E0.2774
G1 X172.492 Y200.460 E0.0219
G1 X169.140 Y197.108 E0.2088
G1 X168.950 Y196.649 E0.0219
G1 X168.950 Y195.182 E0.0646
G1 X169.682 Y194.450 E0.0456
G1 X165.182 Y194.450 E0.1983
G1 X164.450 Y193.718 E0.0456
G1 X164.450 Y187.482 E0.2747
G1 X165.182 Y186.750 E0.0456
G1 X167.418 Y186.750 E0.0985
G1 X168.150 Y187.482 E0.0456
G1 X168.150 Y190.350 E0.1263
G1 X168.650 Y190.350 E0.0220
G1 X168.650 Y182.850 E0.3304
G1 X168.150 Y182.850 E0.0220
G1 X168.150 Y183.318 E0.0206
G1 X167.418 Y184.050 E0.0456
G1 X165.182 Y184.050 E0.0985
G1 X164.450 Y183.318 E0.0456
G1 X164.450 Y179.882 E0.1514
G1 X165.182 Y179.150 E0.0456
G1 X182.848 Y179.150 E0.7783
G1 X182.810 Y155.084 E1.0603
G1 X183.311 Y155.290 F4000
G1 X183.750 Y154.850 E0.0274 F2640
G1 X189.611 Y154.850 E0.2582
G1 X190.050 Y155.289 E0.0274
G1 X190.050 Y157.111 E0.0802
G1 X189.611 Y157.550 E0.0274
G1 X186.850 Y157.550 E0.1216
G1 X186.850 Y191.250 E1.4847
G1 X189.611 Y191.250 E0.1216
G1 X190.050 Y191.689 E0.0274
G1 X190.050 Y193.511 E0.0802
G1 X189.611 Y193.950 E0.0274
G1 X179.750 Y193.950 E0.4344
G1 X179.750 Y194.950 E0.0441
G1 X182.311 Y194.950 E0.1128
G1 X182.750 Y195.389 E0.0274
G1 X182.750 Y196.549 E0.0511
G1 X182.636 Y196.825 E0.0131
G1 X179.425 Y200.036 E0.2001
G1 X179.149 Y200.150 E0.0131
G1 X173.051 Y200.150 E0.2687
G1 X172.775 Y200.036 E0.0131
G1 X169.564 Y196.825 E0.2001
G1 X169.450 Y196.549 E0.0131
G1 X169.450 Y195.389 E0.0511
G1 X169.889 Y194.950 E0.0274
G1 X172.450 Y194.950 E0.1128
G1 X172.450 Y193.950 E0.0441
