; G-Code generated by Simplify3D(R) Version 4.0.0
; Jan 17, 2020 at 1:14:06 PM
; Settings Summary
;   processName,Process1
;   applyToModels,SlidingWireManagerSimple2.1
;   profileName,F400_0.4_ASA(2) (modified)
;   profileVersion,2019-07-09 15:25:06
;   baseProfile,F400_ABS
;   printMaterial,
;   printQuality,Standard
;   printExtruders,
;   extruderName,Primary Extruder
;   extruderToolheadNumber,0
;   extruderDiameter,0.4
;   extruderAutoWidth,0
;   extruderWidth,0.5
;   extrusionMultiplier,1
;   extruderUseRetract,1
;   extruderRetractionDistance,4
;   extruderExtraRestartDistance,0.05
;   extruderRetractionZLift,0.1
;   extruderRetractionSpeed,3600
;   extruderUseCoasting,0
;   extruderCoastingDistance,0.5
;   extruderUseWipe,0
;   extruderWipeDistance,5
;   primaryExtruder,0
;   layerHeight,0.2
;   topSolidLayers,5
;   bottomSolidLayers,5
;   perimeterOutlines,4
;   printPerimetersInsideOut,1
;   startPointOption,2
;   startPointOriginX,0
;   startPointOriginY,360
;   sequentialIslands,0
;   spiralVaseMode,0
;   firstLayerHeightPercentage,100
;   firstLayerWidthPercentage,100
;   firstLayerUnderspeed,0.4
;   useRaft,0
;   raftExtruder,0
;   raftTopLayers,2
;   raftBaseLayers,0
;   raftOffset,4
;   raftSeparationDistance,0.15
;   raftTopInfill,100
;   aboveRaftSpeedMultiplier,0.3
;   useSkirt,1
;   skirtExtruder,0
;   skirtLayers,1
;   skirtOutlines,10
;   skirtOffset,0
;   usePrimePillar,0
;   primePillarExtruder,999
;   primePillarWidth,12
;   primePillarLocation,7
;   primePillarSpeedMultiplier,1
;   useOozeShield,0
;   oozeShieldExtruder,999
;   oozeShieldOffset,2
;   oozeShieldOutlines,1
;   oozeShieldSidewallShape,1
;   oozeShieldSidewallAngle,30
;   oozeShieldSpeedMultiplier,1
;   infillExtruder,0
;   internalInfillPattern,Rectilinear
;   externalInfillPattern,Rectilinear
;   infillPercentage,33
;   outlineOverlapPercentage,30
;   infillExtrusionWidthPercentage,100
;   minInfillLength,5
;   infillLayerInterval,1
;   internalInfillAngles,45,-45
;   overlapInternalInfillAngles,0
;   externalInfillAngles,45,-45
;   generateSupport,1
;   supportExtruder,0
;   supportInfillPercentage,23
;   supportExtraInflation,0.5
;   supportBaseLayers,0
;   denseSupportExtruder,0
;   denseSupportLayers,0
;   denseSupportInfillPercentage,70
;   supportLayerInterval,1
;   supportHorizontalPartOffset,0.35
;   supportUpperSeparationLayers,1
;   supportLowerSeparationLayers,1
;   supportType,0
;   supportGridSpacing,2
;   maxOverhangAngle,45
;   supportAngles,0
;   temperatureName,Primary Extruder,Heated Bed
;   temperatureNumber,0,2
;   temperatureSetpointCount,1,1
;   temperatureSetpointLayers,1,1
;   temperatureSetpointTemperatures,245,100
;   temperatureStabilizeAtStartup,0,0
;   temperatureHeatedBed,0,1
;   temperatureRelayBetweenLayers,0,0
;   temperatureRelayBetweenLoops,0,0
;   fanLayers,1,7
;   fanSpeeds,0,10
;   blipFanToFullPower,0
;   adjustSpeedForCooling,1
;   minSpeedLayerTime,5
;   minCoolingSpeedSlowdown,20
;   increaseFanForCooling,1
;   minFanLayerTime,13
;   maxCoolingFanSpeed,70
;   increaseFanForBridging,0
;   bridgingFanSpeed,65
;   use5D,1
;   relativeEdistances,1
;   allowEaxisZeroing,1
;   independentExtruderAxes,0
;   includeM10123,0
;   stickySupport,1
;   applyToolheadOffsets,0
;   gcodeXoffset,0
;   gcodeYoffset,0
;   gcodeZoffset,-0.05
;   overrideMachineDefinition,1
;   machineTypeOverride,0
;   strokeXoverride,355
;   strokeYoverride,355
;   strokeZoverride,315
;   originOffsetXoverride,0
;   originOffsetYoverride,0
;   originOffsetZoverride,0
;   homeXdirOverride,1
;   homeYdirOverride,-1
;   homeZdirOverride,1
;   flipXoverride,1
;   flipYoverride,-1
;   flipZoverride,1
;   toolheadOffsets,0,0|0,0|0,0|0,0|0,0|0,0
;   overrideFirmwareConfiguration,1
;   firmwareTypeOverride,RepRap (Marlin/Repetier/Sprinter)
;   GPXconfigOverride,r2
;   baudRateOverride,115200
;   overridePrinterModels,0
;   printerModelsOverride
;   startingGcode,M104 S0 ;cancel S3D set temp,G21  ; set units to mm,G90  ; use absolute coordinates,T0  ; select tool 0,G92 E0.0  ; reset e count,M220 S100 ; reset speed multiplier,M140 S[bed2_temperature]  ; set bed temperature and do not wait,G28  ; home all axes,G1 X10 Y10 Z10 F4000,M190 S[bed2_temperature]  ; set bed temperature and wait,G32  ; probe bed ,M109 S[extruder0_temperature]  ; set print head temperature and wait,; === pause for heating ===,M42 P63 S0,G4 P50,G4 P50,M42 P63 S1,G1 Z10.0 F900  ; move up,G1 E30.0 F500  ; prime extruder,G1 Y15 F9000  ; move back,G1 Z0.2 F1000  ; move down to begin wipe,G1 X110 E4.0 F10000  ; wipe print head (extrude material while we do this),G92 E0.0  ; reset e count
;   layerChangeGcode,
;   retractionGcode,
;   toolChangeGcode,
;   endingGcode,G91  ;relative positioning,G1 E-5.00 F1000  ;retract 5mm of filament,G1 Z+1.00 X-20.0 Y+20.0 F20000  ;short quick move to disengage from print,G90  ;absolute positioning,G1 X0.0 Y345.0 F9000  ; move head to back left corner,G91  ; relative positioning,G1 E-5.00 F500  ;retract additional filament to prevent oozing,G90 ;absolute positioning,M104 S0  ;turn off hotend,M140 S0  ;turn off heatbed,M42 P63 S0,G4 P50,G4 P50,M42 P63 S1,G1 Z315 F1000 ;move print bed down to idle position,M106 S0  ; shut off blower,M84  ;motors off,M561  ;clear bed probe transformation
;   exportFileFormat,gcode
;   celebration,0
;   celebrationSong,Random Song
;   postProcessing,
;   defaultSpeed,6600
;   outlineUnderspeed,0.7
;   solidInfillUnderspeed,0.7
;   supportUnderspeed,1
;   rapidXYspeed,4000
;   rapidZspeed,6800
;   minBridgingArea,50
;   bridgingExtraInflation,0
;   bridgingExtrusionMultiplier,0.9
;   bridgingSpeedMultiplier,0.6
;   useFixedBridgingAngle,0
;   fixedBridgingAngle,0
;   applyBridgingToPerimeters,0
;   filamentDiameters,1.7|1.7|1.7|1.7|1.7|1.7
;   filamentPricesPerKg,46|46|46|46|46|46
;   filamentDensities,1.25|1.25|1.25|1.25|1.25|1.25
;   useMinPrintHeight,0
;   minPrintHeight,13
;   useMaxPrintHeight,0
;   maxPrintHeight,13
;   useDiaphragm,0
;   diaphragmLayerInterval,20
;   robustSlicing,1
;   mergeAllIntoSolid,0
;   onlyRetractWhenCrossingOutline,1
;   retractBetweenLayers,0
;   useRetractionMinTravel,0
;   retractionMinTravel,1
;   retractWhileWiping,0
;   onlyWipeOutlines,1
;   avoidCrossingOutline,0
;   maxMovementDetourFactor,3
;   toolChangeRetractionDistance,0
;   toolChangeExtraRestartDistance,0
;   toolChangeRetractionSpeed,360
;   externalThinWallType,1
;   internalThinWallType,1
;   thinWallAllowedOverlapPercentage,50
;   singleExtrusionMinLength,1
;   singleExtrusionMinPrintingWidthPercentage,50
;   singleExtrusionMaxPrintingWidthPercentage,200
;   singleExtrusionEndpointExtension,0.2
;   horizontalSizeCompensation,0
G90
M83
M106 S0
M104 S0 ;cancel S3D set temp
G21  ; set units to mm
G90  ; use absolute coordinates
T0  ; select tool 0
G92 E0.0  ; reset e count
M220 S100 ; reset speed multiplier
M140 S100  ; set bed temperature and do not wait
G28  ; home all axes
G1 X10 Y10 Z10 F4000
M190 S100  ; set bed temperature and wait
G32  ; probe bed 
M109 S245  ; set print head temperature and wait
; === pause for heating ===
M42 P63 S0
G4 P50
G4 P50
M42 P63 S1
G1 Z10.0 F900  ; move up
G1 E30.0 F500  ; prime extruder
G1 Y15 F9000  ; move back
G1 Z0.2 F1000  ; move down to begin wipe
G1 X110 E4.0 F10000  ; wipe print head (extrude material while we do this)
G92 E0.0  ; reset e count
G1 E-4.0000 F3600
G1 Z0.250 F6800
; process Process1
; layer 1, Z = 0.200
T0
; tool H0.200 W0.500
; skirt
G1 X155.050 Y148.798 F4000
G1 Z0.150 F6800
G1 E4.0500 F1080
G1 X157.832 Y146.015 E0.1734 F2640
G1 X174.767 Y146.015 E0.7461
G1 X177.550 Y148.798 E0.1734
G1 X177.550 Y151.966 E0.1396
G1 X178.691 Y152.438 E0.0544
G1 X183.027 Y156.775 E0.2702
G1 X183.750 Y158.520 E0.0833
G1 X183.750 Y161.815 E0.1452
G1 X187.045 Y161.815 E0.1452
G1 X188.791 Y162.539 E0.0833
G1 X193.127 Y166.876 E0.2702
G1 X193.599 Y168.015 E0.0543
G1 X197.167 Y168.015 E0.1572
G1 X199.950 Y170.798 E0.1734
G1 X199.950 Y206.202 E1.5598
G1 X197.167 Y208.985 E0.1734
G1 X188.599 Y208.985 E0.3775
G1 X187.672 Y208.798 E0.0417
G1 X156.640 Y195.787 E1.4825
G1 X155.050 Y193.397 E0.1265
G1 X155.050 Y148.798 E1.9649
G1 X155.550 Y149.005 F4000
G1 X158.040 Y146.515 E0.1551 F2640
G1 X174.560 Y146.515 E0.7278
G1 X177.050 Y149.005 E0.1551
G1 X177.050 Y152.300 E0.1452
G1 X178.407 Y152.862 E0.0647
G1 X182.603 Y157.058 E0.2614
G1 X183.250 Y158.620 E0.0745
G1 X183.250 Y162.315 E0.1628
G1 X186.945 Y162.315 E0.1628
G1 X188.508 Y162.963 E0.0745
G1 X192.703 Y167.159 E0.2614
G1 X193.265 Y168.515 E0.0647
G1 X196.960 Y168.515 E0.1628
G1 X199.450 Y171.005 E0.1551
G1 X199.450 Y205.995 E1.5416
G1 X196.960 Y208.485 E0.1551
G1 X188.649 Y208.485 E0.3662
G1 X187.819 Y208.318 E0.0373
G1 X156.972 Y195.384 E1.4736
G1 X155.550 Y193.246 E0.1132
G1 X155.550 Y149.005 E1.9491
G1 X156.050 Y149.212 F4000
G1 X158.247 Y147.015 E0.1369 F2640
G1 X174.353 Y147.015 E0.7096
G1 X176.550 Y149.212 E0.1369
G1 X176.550 Y152.715 E0.1543
G1 X176.746 Y152.715 E0.0086
G1 X178.124 Y153.286 E0.0657
G1 X182.179 Y157.341 E0.2526
G1 X182.750 Y158.719 E0.0657
G1 X182.750 Y162.815 E0.1805
G1 X186.846 Y162.815 E0.1805
G1 X188.225 Y163.386 E0.0657
G1 X192.279 Y167.442 E0.2527
G1 X192.850 Y168.820 E0.0657
G1 X192.850 Y169.015 E0.0086
G1 X196.753 Y169.015 E0.1720
G1 X198.950 Y171.212 E0.1369
G1 X198.950 Y205.788 E1.5233
G1 X196.753 Y207.985 E0.1369
G1 X188.699 Y207.985 E0.3549
G1 X187.966 Y207.837 E0.0329
G1 X157.305 Y194.982 E1.4648
G1 X156.050 Y193.095 E0.0998
G1 X156.050 Y149.212 E1.9333
G1 X156.550 Y149.419 F4000
G1 X158.454 Y147.515 E0.1186 F2640
G1 X174.146 Y147.515 E0.6913
G1 X176.050 Y149.419 E0.1186
G1 X176.050 Y153.215 E0.1672
G1 X176.646 Y153.215 E0.0263
G1 X177.841 Y153.710 E0.0570
G1 X181.755 Y157.624 E0.2439
G1 X182.250 Y158.819 E0.0570
G1 X182.250 Y163.315 E0.1981
G1 X186.747 Y163.315 E0.1981
G1 X187.941 Y163.810 E0.0570
G1 X191.855 Y167.725 E0.2439
G1 X192.350 Y168.920 E0.0570
G1 X192.350 Y169.515 E0.0262
G1 X196.546 Y169.515 E0.1849
G1 X198.450 Y171.419 E0.1186
G1 X198.450 Y205.581 E1.5051
G1 X196.546 Y207.485 E0.1186
G1 X188.748 Y207.485 E0.3435
G1 X188.114 Y207.357 E0.0285
G1 X157.638 Y194.579 E1.4559
G1 X156.550 Y192.944 E0.0865
G1 X156.550 Y149.419 E1.9175
G1 X157.050 Y149.626 F4000
G1 X158.661 Y148.015 E0.1004 F2640
G1 X173.939 Y148.015 E0.6731
G1 X175.550 Y149.626 E0.1004
G1 X175.550 Y153.715 E0.1802
G1 X176.547 Y153.715 E0.0439
G1 X177.558 Y154.134 E0.0482
G1 X181.331 Y157.908 E0.2351
G1 X181.750 Y158.918 E0.0482
G1 X181.750 Y163.815 E0.2157
G1 X186.647 Y163.815 E0.2157
G1 X187.658 Y164.234 E0.0482
G1 X191.431 Y168.009 E0.2351
G1 X191.850 Y169.019 E0.0482
G1 X191.850 Y170.015 E0.0439
G1 X196.339 Y170.015 E0.1978
G1 X197.950 Y171.626 E0.1004
G1 X197.950 Y205.374 E1.4868
G1 X196.339 Y206.985 E0.1004
G1 X188.798 Y206.985 E0.3322
G1 X188.261 Y206.877 E0.0241
G1 X157.970 Y194.176 E1.4471
G1 X157.050 Y192.792 E0.0732
G1 X157.050 Y149.626 E1.9018
G1 X157.550 Y149.833 F4000
G1 X158.868 Y148.515 E0.0821 F2640
G1 X173.732 Y148.515 E0.6549
G1 X175.050 Y149.833 E0.0821
G1 X175.050 Y154.215 E0.1931
G1 X176.448 Y154.215 E0.0616
G1 X177.275 Y154.558 E0.0394
G1 X180.907 Y158.191 E0.2264
G1 X181.250 Y159.018 E0.0394
G1 X181.250 Y164.315 E0.2334
G1 X186.548 Y164.315 E0.2334
G1 X187.375 Y164.658 E0.0394
G1 X191.008 Y168.292 E0.2264
G1 X191.350 Y169.119 E0.0394
G1 X191.350 Y170.515 E0.0615
G1 X196.132 Y170.515 E0.2107
G1 X197.450 Y171.833 E0.0821
G1 X197.450 Y205.167 E1.4686
G1 X196.132 Y206.485 E0.0821
G1 X188.848 Y206.485 E0.3209
G1 X188.409 Y206.396 E0.0197
G1 X158.303 Y193.774 E1.4382
G1 X157.550 Y192.641 E0.0599
G1 X157.550 Y149.833 E1.8860
G1 X158.050 Y150.040 F4000
G1 X159.075 Y149.015 E0.0639 F2640
G1 X173.525 Y149.015 E0.6366
G1 X174.550 Y150.040 E0.0639
G1 X174.550 Y154.742 E0.2071
G1 X174.576 Y154.715 E0.0016
G1 X176.348 Y154.715 E0.0781
G1 X176.991 Y154.982 E0.0307
G1 X180.484 Y158.474 E0.2176
G1 X180.750 Y159.117 E0.0307
G1 X180.750 Y164.815 E0.2510
G1 X186.448 Y164.815 E0.2510
G1 X187.091 Y165.082 E0.0307
G1 X190.584 Y168.575 E0.2176
G1 X190.850 Y169.218 E0.0307
G1 X190.850 Y170.990 E0.0781
G1 X190.825 Y171.015 E0.0016
G1 X195.925 Y171.015 E0.2247
G1 X196.950 Y172.040 E0.0639
G1 X196.950 Y204.960 E1.4503
G1 X195.925 Y205.985 E0.0639
G1 X188.898 Y205.985 E0.3096
G1 X188.556 Y205.916 E0.0154
G1 X158.636 Y193.371 E1.4294
G1 X158.050 Y192.490 E0.0466
G1 X158.050 Y150.040 E1.8702
G1 E-4.0000 F3600
G1 Z0.250 F6800
G1 X174.550 Y169.990 F4000
G1 Z0.150 F6800
G1 E4.0500 F3600
G1 X174.550 Y171.015 E0.0452 F2640
G1 X175.576 Y171.015 E0.0452
G1 X175.550 Y170.989 E0.0016
G1 X175.550 Y170.015 E0.0429
G1 X174.575 Y170.015 E0.0429
G1 X174.550 Y169.990 E0.0016
G1 X174.782 Y169.515 F4000
G1 X174.050 Y168.783 E0.0456 F2640
G1 X174.050 Y171.515 E0.1204
G1 X179.050 Y171.515 E0.2203
G1 X176.782 Y171.514 E0.0999
G1 X176.050 Y170.782 E0.0456
G1 X176.050 Y169.515 E0.0558
G1 X174.782 Y169.515 E0.0559
G1 X180.250 Y165.315 F4000
G1 X186.349 Y165.315 E0.2687 F2640
G1 X186.808 Y165.506 E0.0219
G1 X190.160 Y168.858 E0.2089
G1 X190.350 Y169.318 E0.0219
G1 X190.350 Y170.783 E0.0646
G1 X189.618 Y171.515 E0.0456
G1 X187.350 Y171.515 E0.0999
G1 X195.718 Y171.515 E0.3687
G1 X196.450 Y172.248 E0.0456
G1 X196.450 Y204.752 E1.4321
G1 X195.718 Y205.485 E0.0456
G1 X188.948 Y205.485 E0.2983
G1 X188.703 Y205.436 E0.0110
G1 X158.968 Y192.968 E1.4205
G1 X158.550 Y192.339 E0.0333
G1 X158.550 Y150.248 E1.8544
G1 X159.282 Y149.515 E0.0456
G1 X173.318 Y149.515 E0.6184
G1 X174.050 Y150.248 E0.0456
G1 X174.050 Y158.215 E0.3510
G1 X174.051 Y155.947 E0.0999
G1 X174.783 Y155.215 E0.0456
G1 X176.249 Y155.215 E0.0646
G1 X176.708 Y155.406 E0.0219
G1 X180.060 Y158.757 E0.2088
G1 X180.250 Y159.217 E0.0219
G1 X180.250 Y165.315 E0.2687
G1 X180.151 Y165.815 F4000
G1 X186.249 Y165.815 E0.2687 F2640
G1 X186.525 Y165.929 E0.0131
G1 X189.736 Y169.141 E0.2001
G1 X189.850 Y169.417 E0.0131
G1 X189.850 Y170.576 E0.0511
G1 X189.411 Y171.015 E0.0274
G1 X186.850 Y171.015 E0.1128
G1 X186.850 Y172.015 E0.0441
G1 X195.511 Y172.015 E0.3816
G1 X195.950 Y172.455 E0.0274
G1 X195.950 Y204.545 E1.4138
G1 X195.511 Y204.985 E0.0274
G1 X188.997 Y204.985 E0.2870
G1 X188.851 Y204.955 E0.0066
G1 X159.301 Y192.566 E1.4117
G1 X159.050 Y192.188 E0.0200
G1 X159.050 Y150.455 E1.8386
G1 X159.489 Y150.015 E0.0274
G1 X173.111 Y150.015 E0.6001
G1 X173.550 Y150.455 E0.0274
G1 X173.550 Y158.715 E0.3639
G1 X174.550 Y158.715 E0.0441
G1 X174.551 Y156.155 E0.1128
G1 X174.990 Y155.715 E0.0274
G1 X176.149 Y155.715 E0.0511
G1 X176.425 Y155.830 E0.0131
G1 X179.636 Y159.040 E0.2001
G1 X179.750 Y159.316 E0.0131
G1 X179.750 Y165.415 E0.2687
G1 X179.636 Y165.690 E0.0131
G1 X176.424 Y168.901 E0.2001
G1 X176.148 Y169.015 E0.0131
G1 X174.989 Y169.015 E0.0511
G1 X174.550 Y168.576 E0.0274
G1 X174.550 Y166.015 E0.1128
G1 X173.550 Y166.015 E0.0441
G1 X173.550 Y172.015 E0.2643
G1 X179.550 Y172.015 E0.2643
G1 X179.550 Y171.015 E0.0441
G1 X176.989 Y171.014 E0.1128
G1 X176.550 Y170.575 E0.0274
G1 X176.550 Y169.416 E0.0511
G1 X176.664 Y169.140 E0.0131
G1 X179.875 Y165.929 E0.2001
G1 X180.151 Y165.815 E0.0131
G1 X180.250 Y166.315 F4000
G1 X186.150 Y166.315 E0.2599 F2640
G1 X186.242 Y166.353 E0.0044
G1 X189.312 Y169.425 E0.1913
G1 X189.350 Y169.516 E0.0044
G1 X189.350 Y170.369 E0.0376
G1 X189.204 Y170.515 E0.0091
G1 X186.350 Y170.515 E0.1257
G1 X186.350 Y172.515 E0.0881
G1 X195.304 Y172.515 E0.3945
G1 X195.450 Y172.662 E0.0091
G1 X195.450 Y204.338 E1.3956
G1 X195.304 Y204.485 E0.0091
G1 X189.047 Y204.485 E0.2756
G1 X188.998 Y204.475 E0.0022
G1 X159.634 Y192.163 E1.4028
G1 X159.550 Y192.037 E0.0067
G1 X159.550 Y150.662 E1.8229
G1 X159.696 Y150.515 E0.0091
G1 X172.903 Y150.515 E0.5819
G1 X173.050 Y150.662 E0.0091
G1 X173.050 Y159.215 E0.3768
G1 X175.050 Y159.215 E0.0881
G1 X175.051 Y156.362 E0.1257
G1 X175.197 Y156.215 E0.0091
G1 X176.050 Y156.215 E0.0376
G1 X176.142 Y156.253 E0.0044
G1 X179.212 Y159.324 E0.1913
G1 X179.250 Y159.416 E0.0044
G1 X179.250 Y165.315 E0.2599
G1 X179.212 Y165.407 E0.0044
G1 X176.141 Y168.477 E0.1913
G1 X176.049 Y168.515 E0.0044
G1 X175.196 Y168.515 E0.0376
