; G-Code generated by Simplify3D(R) Version 4.0.0
; Jan 17, 2020 at 1:15:10 PM
; Settings Summary
;   processName,Process1
;   applyToModels,SlidingWireManagerSimpleStrapmount2.1
;   profileName,F400_0.4_ASA(2) (modified)
;   profileVersion,2019-07-09 15:25:06
;   baseProfile,F400_ABS
;   printMaterial,
;   printQuality,Standard
;   printExtruders,
;   extruderName,Primary Extruder
;   extruderToolheadNumber,0
;   extruderDiameter,0.4
;   extruderAutoWidth,0
;   extruderWidth,0.5
;   extrusionMultiplier,1
;   extruderUseRetract,1
;   extruderRetractionDistance,4
;   extruderExtraRestartDistance,0.05
;   extruderRetractionZLift,0.1
;   extruderRetractionSpeed,3600
;   extruderUseCoasting,0
;   extruderCoastingDistance,0.5
;   extruderUseWipe,0
;   extruderWipeDistance,5
;   primaryExtruder,0
;   layerHeight,0.2
;   topSolidLayers,5
;   bottomSolidLayers,5
;   perimeterOutlines,4
;   printPerimetersInsideOut,1
;   startPointOption,2
;   startPointOriginX,0
;   startPointOriginY,360
;   sequentialIslands,0
;   spiralVaseMode,0
;   firstLayerHeightPercentage,100
;   firstLayerWidthPercentage,100
;   firstLayerUnderspeed,0.4
;   useRaft,0
;   raftExtruder,0
;   raftTopLayers,2
;   raftBaseLayers,0
;   raftOffset,4
;   raftSeparationDistance,0.15
;   raftTopInfill,100
;   aboveRaftSpeedMultiplier,0.3
;   useSkirt,1
;   skirtExtruder,0
;   skirtLayers,1
;   skirtOutlines,10
;   skirtOffset,0
;   usePrimePillar,0
;   primePillarExtruder,999
;   primePillarWidth,12
;   primePillarLocation,7
;   primePillarSpeedMultiplier,1
;   useOozeShield,0
;   oozeShieldExtruder,999
;   oozeShieldOffset,2
;   oozeShieldOutlines,1
;   oozeShieldSidewallShape,1
;   oozeShieldSidewallAngle,30
;   oozeShieldSpeedMultiplier,1
;   infillExtruder,0
;   internalInfillPattern,Rectilinear
;   externalInfillPattern,Rectilinear
;   infillPercentage,33
;   outlineOverlapPercentage,30
;   infillExtrusionWidthPercentage,100
;   minInfillLength,5
;   infillLayerInterval,1
;   internalInfillAngles,45,-45
;   overlapInternalInfillAngles,0
;   externalInfillAngles,45,-45
;   generateSupport,1
;   supportExtruder,0
;   supportInfillPercentage,23
;   supportExtraInflation,0.5
;   supportBaseLayers,0
;   denseSupportExtruder,0
;   denseSupportLayers,0
;   denseSupportInfillPercentage,70
;   supportLayerInterval,1
;   supportHorizontalPartOffset,0.35
;   supportUpperSeparationLayers,1
;   supportLowerSeparationLayers,1
;   supportType,0
;   supportGridSpacing,2
;   maxOverhangAngle,45
;   supportAngles,0
;   temperatureName,Primary Extruder,Heated Bed
;   temperatureNumber,0,2
;   temperatureSetpointCount,1,1
;   temperatureSetpointLayers,1,1
;   temperatureSetpointTemperatures,245,100
;   temperatureStabilizeAtStartup,0,0
;   temperatureHeatedBed,0,1
;   temperatureRelayBetweenLayers,0,0
;   temperatureRelayBetweenLoops,0,0
;   fanLayers,1,7
;   fanSpeeds,0,10
;   blipFanToFullPower,0
;   adjustSpeedForCooling,1
;   minSpeedLayerTime,5
;   minCoolingSpeedSlowdown,20
;   increaseFanForCooling,1
;   minFanLayerTime,13
;   maxCoolingFanSpeed,70
;   increaseFanForBridging,0
;   bridgingFanSpeed,65
;   use5D,1
;   relativeEdistances,1
;   allowEaxisZeroing,1
;   independentExtruderAxes,0
;   includeM10123,0
;   stickySupport,1
;   applyToolheadOffsets,0
;   gcodeXoffset,0
;   gcodeYoffset,0
;   gcodeZoffset,-0.05
;   overrideMachineDefinition,1
;   machineTypeOverride,0
;   strokeXoverride,355
;   strokeYoverride,355
;   strokeZoverride,315
;   originOffsetXoverride,0
;   originOffsetYoverride,0
;   originOffsetZoverride,0
;   homeXdirOverride,1
;   homeYdirOverride,-1
;   homeZdirOverride,1
;   flipXoverride,1
;   flipYoverride,-1
;   flipZoverride,1
;   toolheadOffsets,0,0|0,0|0,0|0,0|0,0|0,0
;   overrideFirmwareConfiguration,1
;   firmwareTypeOverride,RepRap (Marlin/Repetier/Sprinter)
;   GPXconfigOverride,r2
;   baudRateOverride,115200
;   overridePrinterModels,0
;   printerModelsOverride
;   startingGcode,M104 S0 ;cancel S3D set temp,G21  ; set units to mm,G90  ; use absolute coordinates,T0  ; select tool 0,G92 E0.0  ; reset e count,M220 S100 ; reset speed multiplier,M140 S[bed2_temperature]  ; set bed temperature and do not wait,G28  ; home all axes,G1 X10 Y10 Z10 F4000,M190 S[bed2_temperature]  ; set bed temperature and wait,G32  ; probe bed ,M109 S[extruder0_temperature]  ; set print head temperature and wait,; === pause for heating ===,M42 P63 S0,G4 P50,G4 P50,M42 P63 S1,G1 Z10.0 F900  ; move up,G1 E30.0 F500  ; prime extruder,G1 Y15 F9000  ; move back,G1 Z0.2 F1000  ; move down to begin wipe,G1 X110 E4.0 F10000  ; wipe print head (extrude material while we do this),G92 E0.0  ; reset e count
;   layerChangeGcode,
;   retractionGcode,
;   toolChangeGcode,
;   endingGcode,G91  ;relative positioning,G1 E-5.00 F1000  ;retract 5mm of filament,G1 Z+1.00 X-20.0 Y+20.0 F20000  ;short quick move to disengage from print,G90  ;absolute positioning,G1 X0.0 Y345.0 F9000  ; move head to back left corner,G91  ; relative positioning,G1 E-5.00 F500  ;retract additional filament to prevent oozing,G90 ;absolute positioning,M104 S0  ;turn off hotend,M140 S0  ;turn off heatbed,M42 P63 S0,G4 P50,G4 P50,M42 P63 S1,G1 Z315 F1000 ;move print bed down to idle position,M106 S0  ; shut off blower,M84  ;motors off,M561  ;clear bed probe transformation
;   exportFileFormat,gcode
;   celebration,0
;   celebrationSong,Random Song
;   postProcessing,
;   defaultSpeed,6600
;   outlineUnderspeed,0.7
;   solidInfillUnderspeed,0.7
;   supportUnderspeed,1
;   rapidXYspeed,4000
;   rapidZspeed,6800
;   minBridgingArea,50
;   bridgingExtraInflation,0
;   bridgingExtrusionMultiplier,0.9
;   bridgingSpeedMultiplier,0.6
;   useFixedBridgingAngle,0
;   fixedBridgingAngle,0
;   applyBridgingToPerimeters,0
;   filamentDiameters,1.7|1.7|1.7|1.7|1.7|1.7
;   filamentPricesPerKg,46|46|46|46|46|46
;   filamentDensities,1.25|1.25|1.25|1.25|1.25|1.25
;   useMinPrintHeight,0
;   minPrintHeight,13
;   useMaxPrintHeight,0
;   maxPrintHeight,13
;   useDiaphragm,0
;   diaphragmLayerInterval,20
;   robustSlicing,1
;   mergeAllIntoSolid,0
;   onlyRetractWhenCrossingOutline,1
;   retractBetweenLayers,0
;   useRetractionMinTravel,0
;   retractionMinTravel,1
;   retractWhileWiping,0
;   onlyWipeOutlines,1
;   avoidCrossingOutline,0
;   maxMovementDetourFactor,3
;   toolChangeRetractionDistance,0
;   toolChangeExtraRestartDistance,0
;   toolChangeRetractionSpeed,360
;   externalThinWallType,1
;   internalThinWallType,1
;   thinWallAllowedOverlapPercentage,50
;   singleExtrusionMinLength,1
;   singleExtrusionMinPrintingWidthPercentage,50
;   singleExtrusionMaxPrintingWidthPercentage,200
;   singleExtrusionEndpointExtension,0.2
;   horizontalSizeCompensation,0
G90
M83
M106 S0
M104 S0 ;cancel S3D set temp
G21  ; set units to mm
G90  ; use absolute coordinates
T0  ; select tool 0
G92 E0.0  ; reset e count
M220 S100 ; reset speed multiplier
M140 S100  ; set bed temperature and do not wait
G28  ; home all axes
G1 X10 Y10 Z10 F4000
M190 S100  ; set bed temperature and wait
G32  ; probe bed 
M109 S245  ; set print head temperature and wait
; === pause for heating ===
M42 P63 S0
G4 P50
G4 P50
M42 P63 S1
G1 Z10.0 F900  ; move up
G1 E30.0 F500  ; prime extruder
G1 Y15 F9000  ; move back
G1 Z0.2 F1000  ; move down to begin wipe
G1 X110 E4.0 F10000  ; wipe print head (extrude material while we do this)
G92 E0.0  ; reset e count
G1 E-4.0000 F3600
G1 Z0.250 F6800
; process Process1
; layer 1, Z = 0.200
T0
; tool H0.200 W0.500
; skirt
G1 X155.050 Y141.904 F4000
G1 Z0.150 F6800
G1 E4.0500 F1080
G1 X157.832 Y139.122 E0.1734 F2640
G1 X174.767 Y139.122 E0.7461
G1 X177.550 Y141.904 E0.1734
G1 X177.550 Y145.073 E0.1396
G1 X178.691 Y145.545 E0.0544
G1 X183.027 Y149.881 E0.2702
G1 X183.750 Y151.627 E0.0833
G1 X183.750 Y154.922 E0.1452
G1 X187.045 Y154.922 E0.1452
G1 X188.791 Y155.645 E0.0833
G1 X193.127 Y159.982 E0.2702
G1 X193.599 Y161.122 E0.0543
G1 X197.167 Y161.122 E0.1572
G1 X199.950 Y163.904 E0.1734
G1 X199.950 Y199.309 E1.5598
G1 X197.167 Y202.091 E0.1734
G1 X195.250 Y202.091 E0.0845
G1 X195.250 Y207.650 E0.2449
G1 X195.238 Y207.885 E0.0104
G1 X195.133 Y208.937 E0.0466
G1 X195.042 Y209.395 E0.0206
G1 X194.700 Y210.517 E0.0517
G1 X194.521 Y210.948 E0.0206
G1 X193.967 Y211.981 E0.0517
G1 X193.707 Y212.369 E0.0206
G1 X192.962 Y213.275 E0.0517
G1 X192.631 Y213.605 E0.0206
G1 X191.724 Y214.347 E0.0517
G1 X191.335 Y214.606 E0.0206
G1 X190.302 Y215.157 E0.0516
G1 X189.873 Y215.334 E0.0204
G1 X188.760 Y215.671 E0.0512
G1 X188.303 Y215.762 E0.0205
G1 X187.251 Y215.866 E0.0466
G1 X187.017 Y215.878 E0.0103
G1 X179.379 Y215.878 E0.3365
G1 X179.143 Y215.866 E0.0104
G1 X178.091 Y215.761 E0.0466
G1 X177.633 Y215.670 E0.0206
G1 X176.511 Y215.328 E0.0517
G1 X176.080 Y215.149 E0.0206
G1 X175.047 Y214.595 E0.0517
G1 X174.659 Y214.335 E0.0206
G1 X173.753 Y213.590 E0.0517
G1 X173.424 Y213.259 E0.0206
G1 X172.681 Y212.352 E0.0517
G1 X172.422 Y211.963 E0.0206
G1 X171.871 Y210.930 E0.0516
G1 X171.694 Y210.501 E0.0204
G1 X171.357 Y209.388 E0.0513
G1 X171.266 Y208.931 E0.0205
G1 X171.162 Y207.879 E0.0466
G1 X171.150 Y207.645 E0.0103
G1 X171.150 Y194.978 E0.5581
G1 X156.640 Y188.894 E0.6932
G1 X155.050 Y186.503 E0.1265
G1 X155.050 Y141.904 E1.9649
G1 X155.550 Y142.112 F4000
G1 X158.040 Y139.622 E0.1551 F2640
G1 X174.560 Y139.622 E0.7278
G1 X177.050 Y142.112 E0.1551
G1 X177.050 Y145.407 E0.1452
G1 X178.407 Y145.969 E0.0647
G1 X182.603 Y150.165 E0.2614
G1 X183.250 Y151.727 E0.0745
G1 X183.250 Y155.422 E0.1628
G1 X186.945 Y155.422 E0.1628
G1 X188.508 Y156.069 E0.0745
G1 X192.703 Y160.266 E0.2614
G1 X193.265 Y161.622 E0.0647
G1 X196.960 Y161.622 E0.1628
G1 X199.450 Y164.112 E0.1551
G1 X199.450 Y199.102 E1.5416
G1 X196.960 Y201.591 E0.1551
G1 X194.750 Y201.591 E0.0974
G1 X194.750 Y207.637 E0.2664
G1 X194.739 Y207.848 E0.0093
G1 X194.638 Y208.863 E0.0449
G1 X194.556 Y209.273 E0.0184
G1 X194.229 Y210.348 E0.0495
G1 X194.068 Y210.733 E0.0184
G1 X193.538 Y211.724 E0.0495
G1 X193.305 Y212.071 E0.0184
G1 X192.591 Y212.938 E0.0495
G1 X192.295 Y213.233 E0.0184
G1 X191.426 Y213.945 E0.0495
G1 X191.078 Y214.176 E0.0184
G1 X190.088 Y214.704 E0.0494
G1 X189.705 Y214.862 E0.0183
G1 X188.638 Y215.186 E0.0491
G1 X188.230 Y215.267 E0.0184
G1 X187.214 Y215.368 E0.0450
G1 X187.004 Y215.378 E0.0092
G1 X179.391 Y215.378 E0.3354
G1 X179.180 Y215.367 E0.0093
G1 X178.165 Y215.266 E0.0449
G1 X177.755 Y215.184 E0.0184
G1 X176.681 Y214.857 E0.0495
G1 X176.295 Y214.697 E0.0184
G1 X175.305 Y214.166 E0.0495
G1 X174.958 Y213.933 E0.0184
G1 X174.090 Y213.219 E0.0495
G1 X173.795 Y212.924 E0.0184
G1 X173.083 Y212.054 E0.0495
G1 X172.852 Y211.706 E0.0184
G1 X172.324 Y210.716 E0.0494
G1 X172.166 Y210.333 E0.0183
G1 X171.842 Y209.267 E0.0491
G1 X171.761 Y208.858 E0.0184
G1 X171.660 Y207.842 E0.0450
G1 X171.650 Y207.633 E0.0092
G1 X171.650 Y194.645 E0.5722
G1 X156.972 Y188.491 E0.7012
G1 X155.550 Y186.352 E0.1132
G1 X155.550 Y142.112 E1.9491
G1 X156.050 Y142.319 F4000
G1 X158.247 Y140.122 E0.1369 F2640
G1 X174.353 Y140.122 E0.7096
G1 X176.550 Y142.319 E0.1369
G1 X176.550 Y145.822 E0.1543
G1 X176.746 Y145.822 E0.0086
G1 X178.124 Y146.393 E0.0657
G1 X182.179 Y150.448 E0.2526
G1 X182.750 Y151.826 E0.0657
G1 X182.750 Y155.922 E0.1805
G1 X186.846 Y155.922 E0.1805
G1 X188.224 Y156.493 E0.0657
G1 X192.279 Y160.549 E0.2527
G1 X192.850 Y161.927 E0.0657
G1 X192.850 Y162.122 E0.0086
G1 X196.753 Y162.122 E0.1720
G1 X198.950 Y164.319 E0.1369
G1 X198.950 Y198.895 E1.5233
G1 X196.753 Y201.091 E0.1369
G1 X194.250 Y201.091 E0.1103
G1 X194.250 Y207.625 E0.2878
G1 X194.240 Y207.811 E0.0082
G1 X194.143 Y208.789 E0.0433
G1 X194.071 Y209.150 E0.0162
G1 X193.758 Y210.178 E0.0473
G1 X193.616 Y210.519 E0.0162
G1 X193.109 Y211.466 E0.0473
G1 X192.903 Y211.772 E0.0162
G1 X192.221 Y212.602 E0.0473
G1 X191.960 Y212.862 E0.0162
G1 X191.128 Y213.542 E0.0473
G1 X190.821 Y213.747 E0.0162
G1 X189.874 Y214.251 E0.0473
G1 X189.536 Y214.391 E0.0161
G1 X188.517 Y214.700 E0.0469
G1 X188.156 Y214.772 E0.0162
G1 X187.177 Y214.869 E0.0434
G1 X186.992 Y214.878 E0.0081
G1 X179.403 Y214.878 E0.3343
G1 X179.218 Y214.869 E0.0082
G1 X178.239 Y214.771 E0.0433
G1 X177.878 Y214.699 E0.0162
G1 X176.850 Y214.386 E0.0473
G1 X176.510 Y214.244 E0.0162
G1 X175.563 Y213.737 E0.0473
G1 X175.256 Y213.532 E0.0162
G1 X174.427 Y212.849 E0.0473
G1 X174.166 Y212.588 E0.0162
G1 X173.486 Y211.756 E0.0473
G1 X173.281 Y211.450 E0.0162
G1 X172.777 Y210.503 E0.0473
G1 X172.637 Y210.165 E0.0161
G1 X172.328 Y209.145 E0.0469
G1 X172.256 Y208.784 E0.0162
G1 X172.159 Y207.805 E0.0434
G1 X172.150 Y207.620 E0.0081
G1 X172.150 Y194.313 E0.5863
G1 X157.305 Y188.088 E0.7092
G1 X156.050 Y186.201 E0.0998
G1 X156.050 Y142.319 E1.9333
G1 X156.550 Y142.526 F4000
G1 X158.454 Y140.622 E0.1186 F2640
G1 X174.146 Y140.622 E0.6913
G1 X176.050 Y142.526 E0.1186
G1 X176.050 Y146.322 E0.1673
G1 X176.646 Y146.322 E0.0263
G1 X177.841 Y146.817 E0.0570
G1 X181.755 Y150.731 E0.2439
G1 X182.250 Y151.926 E0.0570
G1 X182.250 Y156.422 E0.1981
G1 X186.747 Y156.422 E0.1981
G1 X187.941 Y156.917 E0.0570
G1 X191.855 Y160.832 E0.2439
G1 X192.350 Y162.026 E0.0570
G1 X192.350 Y162.622 E0.0262
G1 X196.546 Y162.622 E0.1849
G1 X198.450 Y164.526 E0.1186
G1 X198.450 Y198.688 E1.5051
G1 X196.546 Y200.591 E0.1186
G1 X193.750 Y200.591 E0.1232
G1 X193.750 Y207.612 E0.3093
G1 X193.742 Y207.773 E0.0071
G1 X193.648 Y208.715 E0.0417
G1 X193.585 Y209.028 E0.0141
G1 X193.286 Y210.009 E0.0452
G1 X193.164 Y210.304 E0.0141
G1 X192.679 Y211.208 E0.0452
G1 X192.502 Y211.473 E0.0141
G1 X191.850 Y212.265 E0.0452
G1 X191.624 Y212.490 E0.0141
G1 X190.831 Y213.140 E0.0452
G1 X190.565 Y213.317 E0.0141
G1 X189.661 Y213.798 E0.0451
G1 X189.368 Y213.920 E0.0140
G1 X188.395 Y214.215 E0.0448
G1 X188.083 Y214.277 E0.0140
G1 X187.140 Y214.370 E0.0417
G1 X186.980 Y214.378 E0.0071
G1 X179.416 Y214.378 E0.3332
G1 X179.255 Y214.370 E0.0071
G1 X178.313 Y214.276 E0.0417
G1 X178.000 Y214.213 E0.0141
G1 X177.019 Y213.915 E0.0452
G1 X176.724 Y213.792 E0.0141
G1 X175.820 Y213.308 E0.0452
G1 X175.555 Y213.130 E0.0141
G1 X174.763 Y212.478 E0.0452
G1 X174.538 Y212.252 E0.0141
G1 X173.888 Y211.459 E0.0452
G1 X173.711 Y211.193 E0.0141
G1 X173.230 Y210.289 E0.0451
G1 X173.109 Y209.996 E0.0140
G1 X172.813 Y209.023 E0.0448
G1 X172.751 Y208.711 E0.0140
G1 X172.658 Y207.768 E0.0417
G1 X172.650 Y207.608 E0.0071
G1 X172.650 Y193.980 E0.6004
G1 X157.638 Y187.686 E0.7172
G1 X156.550 Y186.050 E0.0865
G1 X156.550 Y142.526 E1.9175
G1 X157.050 Y142.733 F4000
G1 X158.661 Y141.122 E0.1004 F2640
G1 X173.939 Y141.122 E0.6731
G1 X175.550 Y142.733 E0.1004
G1 X175.550 Y146.822 E0.1802
G1 X176.547 Y146.822 E0.0439
G1 X177.558 Y147.241 E0.0482
G1 X181.331 Y151.014 E0.2351
G1 X181.750 Y152.025 E0.0482
G1 X181.750 Y156.922 E0.2157
G1 X186.647 Y156.922 E0.2157
G1 X187.658 Y157.341 E0.0482
G1 X191.431 Y161.115 E0.2351
G1 X191.850 Y162.126 E0.0482
G1 X191.850 Y163.122 E0.0439
G1 X196.339 Y163.122 E0.1978
G1 X197.950 Y164.733 E0.1004
G1 X197.950 Y198.480 E1.4868
G1 X196.339 Y200.091 E0.1004
G1 X193.250 Y200.091 E0.1361
G1 X193.250 Y207.600 E0.3308
G1 X193.243 Y207.736 E0.0060
G1 X193.153 Y208.641 E0.0401
G1 X193.100 Y208.906 E0.0119
G1 X192.815 Y209.840 E0.0430
G1 X192.712 Y210.090 E0.0119
G1 X192.250 Y210.950 E0.0430
G1 X192.100 Y211.174 E0.0119
G1 X191.480 Y211.928 E0.0430
G1 X191.288 Y212.119 E0.0119
G1 X190.533 Y212.737 E0.0430
G1 X190.308 Y212.887 E0.0119
G1 X189.447 Y213.346 E0.0430
G1 X189.199 Y213.448 E0.0118
G1 X188.273 Y213.729 E0.0426
G1 X188.009 Y213.782 E0.0119
G1 X187.103 Y213.871 E0.0401
G1 X186.968 Y213.878 E0.0060
G1 X179.428 Y213.878 E0.3322
G1 X179.292 Y213.871 E0.0060
G1 X178.387 Y213.781 E0.0401
G1 X178.122 Y213.728 E0.0119
G1 X177.188 Y213.443 E0.0430
G1 X176.939 Y213.340 E0.0119
G1 X176.078 Y212.879 E0.0430
G1 X175.854 Y212.728 E0.0119
G1 X175.100 Y212.108 E0.0430
G1 X174.909 Y211.916 E0.0119
G1 X174.291 Y211.161 E0.0430
G1 X174.141 Y210.936 E0.0119
G1 X173.682 Y210.076 E0.0430
G1 X173.580 Y209.828 E0.0118
G1 X173.299 Y208.902 E0.0426
G1 X173.246 Y208.637 E0.0119
G1 X173.157 Y207.731 E0.0401
G1 X173.150 Y207.596 E0.0060
