; G-Code generated by Simplify3D(R) Version 4.0.0
; Jan 17, 2020 at 1:18:00 PM
; Settings Summary
;   processName,Process1
;   applyToModels,ZXGestureSensorMount2.1
;   profileName,F400_0.4_ASA(2) (modified)
;   profileVersion,2019-07-09 15:25:06
;   baseProfile,F400_ABS
;   printMaterial,
;   printQuality,Standard
;   printExtruders,
;   extruderName,Primary Extruder
;   extruderToolheadNumber,0
;   extruderDiameter,0.4
;   extruderAutoWidth,0
;   extruderWidth,0.5
;   extrusionMultiplier,1
;   extruderUseRetract,1
;   extruderRetractionDistance,4
;   extruderExtraRestartDistance,0.05
;   extruderRetractionZLift,0.1
;   extruderRetractionSpeed,3600
;   extruderUseCoasting,0
;   extruderCoastingDistance,0.5
;   extruderUseWipe,0
;   extruderWipeDistance,5
;   primaryExtruder,0
;   layerHeight,0.2
;   topSolidLayers,5
;   bottomSolidLayers,5
;   perimeterOutlines,4
;   printPerimetersInsideOut,1
;   startPointOption,2
;   startPointOriginX,0
;   startPointOriginY,360
;   sequentialIslands,0
;   spiralVaseMode,0
;   firstLayerHeightPercentage,100
;   firstLayerWidthPercentage,100
;   firstLayerUnderspeed,0.4
;   useRaft,0
;   raftExtruder,0
;   raftTopLayers,2
;   raftBaseLayers,0
;   raftOffset,4
;   raftSeparationDistance,0.15
;   raftTopInfill,100
;   aboveRaftSpeedMultiplier,0.3
;   useSkirt,1
;   skirtExtruder,0
;   skirtLayers,1
;   skirtOutlines,10
;   skirtOffset,0
;   usePrimePillar,0
;   primePillarExtruder,999
;   primePillarWidth,12
;   primePillarLocation,7
;   primePillarSpeedMultiplier,1
;   useOozeShield,0
;   oozeShieldExtruder,999
;   oozeShieldOffset,2
;   oozeShieldOutlines,1
;   oozeShieldSidewallShape,1
;   oozeShieldSidewallAngle,30
;   oozeShieldSpeedMultiplier,1
;   infillExtruder,0
;   internalInfillPattern,Rectilinear
;   externalInfillPattern,Rectilinear
;   infillPercentage,33
;   outlineOverlapPercentage,30
;   infillExtrusionWidthPercentage,100
;   minInfillLength,5
;   infillLayerInterval,1
;   internalInfillAngles,45,-45
;   overlapInternalInfillAngles,0
;   externalInfillAngles,45,-45
;   generateSupport,1
;   supportExtruder,0
;   supportInfillPercentage,23
;   supportExtraInflation,0.5
;   supportBaseLayers,0
;   denseSupportExtruder,0
;   denseSupportLayers,0
;   denseSupportInfillPercentage,70
;   supportLayerInterval,1
;   supportHorizontalPartOffset,0.35
;   supportUpperSeparationLayers,1
;   supportLowerSeparationLayers,1
;   supportType,0
;   supportGridSpacing,2
;   maxOverhangAngle,45
;   supportAngles,0
;   temperatureName,Primary Extruder,Heated Bed
;   temperatureNumber,0,2
;   temperatureSetpointCount,1,1
;   temperatureSetpointLayers,1,1
;   temperatureSetpointTemperatures,245,100
;   temperatureStabilizeAtStartup,0,0
;   temperatureHeatedBed,0,1
;   temperatureRelayBetweenLayers,0,0
;   temperatureRelayBetweenLoops,0,0
;   fanLayers,1,7
;   fanSpeeds,0,10
;   blipFanToFullPower,0
;   adjustSpeedForCooling,1
;   minSpeedLayerTime,5
;   minCoolingSpeedSlowdown,20
;   increaseFanForCooling,1
;   minFanLayerTime,13
;   maxCoolingFanSpeed,70
;   increaseFanForBridging,0
;   bridgingFanSpeed,65
;   use5D,1
;   relativeEdistances,1
;   allowEaxisZeroing,1
;   independentExtruderAxes,0
;   includeM10123,0
;   stickySupport,1
;   applyToolheadOffsets,0
;   gcodeXoffset,0
;   gcodeYoffset,0
;   gcodeZoffset,-0.05
;   overrideMachineDefinition,1
;   machineTypeOverride,0
;   strokeXoverride,355
;   strokeYoverride,355
;   strokeZoverride,315
;   originOffsetXoverride,0
;   originOffsetYoverride,0
;   originOffsetZoverride,0
;   homeXdirOverride,1
;   homeYdirOverride,-1
;   homeZdirOverride,1
;   flipXoverride,1
;   flipYoverride,-1
;   flipZoverride,1
;   toolheadOffsets,0,0|0,0|0,0|0,0|0,0|0,0
;   overrideFirmwareConfiguration,1
;   firmwareTypeOverride,RepRap (Marlin/Repetier/Sprinter)
;   GPXconfigOverride,r2
;   baudRateOverride,115200
;   overridePrinterModels,0
;   printerModelsOverride
;   startingGcode,M104 S0 ;cancel S3D set temp,G21  ; set units to mm,G90  ; use absolute coordinates,T0  ; select tool 0,G92 E0.0  ; reset e count,M220 S100 ; reset speed multiplier,M140 S[bed2_temperature]  ; set bed temperature and do not wait,G28  ; home all axes,G1 X10 Y10 Z10 F4000,M190 S[bed2_temperature]  ; set bed temperature and wait,G32  ; probe bed ,M109 S[extruder0_temperature]  ; set print head temperature and wait,; === pause for heating ===,M42 P63 S0,G4 P50,G4 P50,M42 P63 S1,G1 Z10.0 F900  ; move up,G1 E30.0 F500  ; prime extruder,G1 Y15 F9000  ; move back,G1 Z0.2 F1000  ; move down to begin wipe,G1 X110 E4.0 F10000  ; wipe print head (extrude material while we do this),G92 E0.0  ; reset e count
;   layerChangeGcode,
;   retractionGcode,
;   toolChangeGcode,
;   endingGcode,G91  ;relative positioning,G1 E-5.00 F1000  ;retract 5mm of filament,G1 Z+1.00 X-20.0 Y+20.0 F20000  ;short quick move to disengage from print,G90  ;absolute positioning,G1 X0.0 Y345.0 F9000  ; move head to back left corner,G91  ; relative positioning,G1 E-5.00 F500  ;retract additional filament to prevent oozing,G90 ;absolute positioning,M104 S0  ;turn off hotend,M140 S0  ;turn off heatbed,M42 P63 S0,G4 P50,G4 P50,M42 P63 S1,G1 Z315 F1000 ;move print bed down to idle position,M106 S0  ; shut off blower,M84  ;motors off,M561  ;clear bed probe transformation
;   exportFileFormat,gcode
;   celebration,0
;   celebrationSong,Random Song
;   postProcessing,
;   defaultSpeed,6600
;   outlineUnderspeed,0.7
;   solidInfillUnderspeed,0.7
;   supportUnderspeed,1
;   rapidXYspeed,4000
;   rapidZspeed,6800
;   minBridgingArea,50
;   bridgingExtraInflation,0
;   bridgingExtrusionMultiplier,0.9
;   bridgingSpeedMultiplier,0.6
;   useFixedBridgingAngle,0
;   fixedBridgingAngle,0
;   applyBridgingToPerimeters,0
;   filamentDiameters,1.7|1.7|1.7|1.7|1.7|1.7
;   filamentPricesPerKg,46|46|46|46|46|46
;   filamentDensities,1.25|1.25|1.25|1.25|1.25|1.25
;   useMinPrintHeight,0
;   minPrintHeight,13
;   useMaxPrintHeight,0
;   maxPrintHeight,13
;   useDiaphragm,0
;   diaphragmLayerInterval,20
;   robustSlicing,1
;   mergeAllIntoSolid,0
;   onlyRetractWhenCrossingOutline,1
;   retractBetweenLayers,0
;   useRetractionMinTravel,0
;   retractionMinTravel,1
;   retractWhileWiping,0
;   onlyWipeOutlines,1
;   avoidCrossingOutline,0
;   maxMovementDetourFactor,3
;   toolChangeRetractionDistance,0
;   toolChangeExtraRestartDistance,0
;   toolChangeRetractionSpeed,360
;   externalThinWallType,1
;   internalThinWallType,1
;   thinWallAllowedOverlapPercentage,50
;   singleExtrusionMinLength,1
;   singleExtrusionMinPrintingWidthPercentage,50
;   singleExtrusionMaxPrintingWidthPercentage,200
;   singleExtrusionEndpointExtension,0.2
;   horizontalSizeCompensation,0
G90
M83
M106 S0
M104 S0 ;cancel S3D set temp
G21  ; set units to mm
G90  ; use absolute coordinates
T0  ; select tool 0
G92 E0.0  ; reset e count
M220 S100 ; reset speed multiplier
M140 S100  ; set bed temperature and do not wait
G28  ; home all axes
G1 X10 Y10 Z10 F4000
M190 S100  ; set bed temperature and wait
G32  ; probe bed 
M109 S245  ; set print head temperature and wait
; === pause for heating ===
M42 P63 S0
G4 P50
G4 P50
M42 P63 S1
G1 Z10.0 F900  ; move up
G1 E30.0 F500  ; prime extruder
G1 Y15 F9000  ; move back
G1 Z0.2 F1000  ; move down to begin wipe
G1 X110 E4.0 F10000  ; wipe print head (extrude material while we do this)
G92 E0.0  ; reset e count
G1 E-4.0000 F3600
G1 Z0.250 F6800
; process Process1
; layer 1, Z = 0.200
T0
; tool H0.200 W0.500
; skirt
G1 X155.127 Y132.309 F4000
G1 Z0.150 F6800
G1 E4.0500 F1080
G1 X156.157 Y131.322 E0.0629 F2640
G1 X157.268 Y130.716 E0.0558
G1 X158.471 Y130.428 E0.0545
G1 X159.254 Y130.374 E0.0346
G1 X160.172 Y130.462 E0.0406
G1 X160.688 Y130.570 E0.0232
G1 X161.673 Y130.893 E0.0457
G1 X161.831 Y130.951 E0.0074
G1 X163.289 Y131.547 E0.0694
G1 X163.526 Y131.612 E0.0108
G1 X163.891 Y131.649 E0.0161
G1 X167.173 Y131.811 E0.1448
G1 X169.058 Y131.794 E0.0831
G1 X173.607 Y131.529 E0.2008
G1 X176.588 Y134.341 E0.1806
G1 X176.588 Y167.592 E1.4649
G1 X177.729 Y168.064 E0.0544
G1 X182.065 Y172.401 E0.2702
G1 X182.788 Y174.146 E0.0833
G1 X182.788 Y177.441 E0.1452
G1 X186.083 Y177.441 E0.1452
G1 X187.829 Y178.164 E0.0833
G1 X192.165 Y182.501 E0.2702
G1 X192.637 Y183.641 E0.0544
G1 X198.206 Y183.641 E0.2453
G1 X200.988 Y186.424 E0.1734
G1 X200.988 Y192.359 E0.2615
G1 X198.206 Y195.141 E0.1734
G1 X196.988 Y195.141 E0.0536
G1 X196.988 Y212.897 E0.7823
G1 X198.206 Y212.897 E0.0536
G1 X200.988 Y215.680 E0.1734
G1 X200.988 Y221.828 E0.2709
G1 X198.206 Y224.611 E0.1734
G1 X187.637 Y224.611 E0.4656
G1 X186.710 Y224.424 E0.0417
G1 X155.678 Y211.413 E1.4825
G1 X154.088 Y209.023 E0.1265
G1 X154.088 Y166.151 E1.8888
G1 X154.137 Y165.672 E0.0212
G1 X155.316 Y159.926 E0.2584
G1 X155.684 Y157.108 E0.1252
G1 X155.911 Y154.026 E0.1361
G1 X155.944 Y150.646 E0.1489
G1 X155.719 Y146.842 E0.1679
G1 X155.161 Y142.465 E0.1944
G1 X154.051 Y136.570 E0.2643
G1 X154.010 Y136.112 E0.0203
G1 X154.017 Y135.168 E0.0416
G1 X154.132 Y134.456 E0.0318
G1 X154.499 Y133.312 E0.0529
G1 X155.127 Y132.309 E0.0521
G1 X155.518 Y132.627 F4000
G1 X156.455 Y131.729 E0.0572 F2640
G1 X157.449 Y131.187 E0.0499
G1 X158.547 Y130.924 E0.0497
G1 X159.248 Y130.876 E0.0309
G1 X160.097 Y130.957 E0.0376
G1 X160.559 Y131.054 E0.0208
G1 X161.509 Y131.365 E0.0441
G1 X161.650 Y131.417 E0.0066
G1 X163.127 Y132.021 E0.0703
G1 X163.434 Y132.106 E0.0140
G1 X163.853 Y132.148 E0.0186
G1 X167.163 Y132.311 E0.1460
G1 X169.075 Y132.294 E0.0842
G1 X173.421 Y132.040 E0.1918
G1 X176.088 Y134.557 E0.1615
G1 X176.088 Y167.926 E1.4702
G1 X177.446 Y168.488 E0.0647
G1 X181.641 Y172.684 E0.2614
G1 X182.288 Y174.246 E0.0745
G1 X182.288 Y177.941 E0.1628
G1 X185.983 Y177.941 E0.1628
G1 X187.546 Y178.588 E0.0745
G1 X191.741 Y182.784 E0.2614
G1 X192.303 Y184.141 E0.0647
G1 X197.999 Y184.141 E0.2509
G1 X200.488 Y186.631 E0.1551
G1 X200.488 Y192.152 E0.2432
G1 X197.999 Y194.641 E0.1551
G1 X196.488 Y194.641 E0.0665
G1 X196.488 Y213.397 E0.8263
G1 X197.999 Y213.397 E0.0665
G1 X200.488 Y215.887 E0.1551
G1 X200.488 Y221.621 E0.2526
G1 X197.999 Y224.111 E0.1551
G1 X187.687 Y224.111 E0.4543
G1 X186.857 Y223.944 E0.0373
G1 X156.010 Y211.010 E1.4736
G1 X154.588 Y208.872 E0.1132
G1 X154.588 Y166.176 E1.8810
G1 X154.632 Y165.748 E0.0190
G1 X155.810 Y160.009 E0.2581
G1 X156.182 Y157.158 E0.1267
G1 X156.411 Y154.047 E0.1374
G1 X156.444 Y150.634 E0.1504
G1 X156.217 Y146.796 E0.1694
G1 X155.655 Y142.387 E0.1958
G1 X154.547 Y136.501 E0.2638
G1 X154.510 Y136.091 E0.0181
G1 X154.517 Y135.210 E0.0388
G1 X154.620 Y134.572 E0.0285
G1 X154.956 Y133.525 E0.0485
G1 X155.518 Y132.627 E0.0466
G1 X155.908 Y132.945 F4000
G1 X156.753 Y132.136 E0.0515 F2640
G1 X157.630 Y131.657 E0.0440
G1 X158.623 Y131.420 E0.0450
G1 X159.241 Y131.377 E0.0273
G1 X160.022 Y131.452 E0.0346
G1 X160.429 Y131.537 E0.0183
G1 X161.345 Y131.838 E0.0424
G1 X161.469 Y131.884 E0.0059
G1 X162.965 Y132.495 E0.0712
G1 X163.342 Y132.599 E0.0172
G1 X163.816 Y132.646 E0.0210
G1 X167.152 Y132.811 E0.1472
G1 X169.092 Y132.794 E0.0854
G1 X173.235 Y132.552 E0.1828
G1 X175.588 Y134.772 E0.1425
G1 X175.588 Y168.341 E1.4789
G1 X175.784 Y168.341 E0.0086
G1 X177.162 Y168.912 E0.0657
G1 X181.217 Y172.967 E0.2526
G1 X181.788 Y174.345 E0.0657
G1 X181.788 Y178.441 E0.1805
G1 X185.884 Y178.441 E0.1805
G1 X187.262 Y179.012 E0.0657
G1 X191.317 Y183.067 E0.2526
G1 X191.888 Y184.445 E0.0657
G1 X191.888 Y184.641 E0.0086
G1 X197.791 Y184.641 E0.2601
G1 X199.988 Y186.838 E0.1369
G1 X199.988 Y191.945 E0.2250
G1 X197.791 Y194.141 E0.1369
G1 X195.988 Y194.141 E0.0794
G1 X195.988 Y213.897 E0.8704
G1 X197.791 Y213.897 E0.0794
G1 X199.988 Y216.094 E0.1369
G1 X199.988 Y221.414 E0.2344
G1 X197.791 Y223.611 E0.1369
G1 X187.737 Y223.611 E0.4430
G1 X187.005 Y223.463 E0.0329
G1 X156.343 Y210.608 E1.4648
G1 X155.088 Y208.721 E0.0998
G1 X155.088 Y166.201 E1.8733
G1 X155.127 Y165.823 E0.0167
G1 X156.303 Y160.092 E0.2578
G1 X156.680 Y157.209 E0.1281
G1 X156.911 Y154.068 E0.1388
G1 X156.944 Y150.622 E0.1518
G1 X156.716 Y146.749 E0.1709
G1 X156.149 Y142.309 E0.1972
G1 X155.043 Y136.433 E0.2634
G1 X155.011 Y136.071 E0.0160
G1 X155.017 Y135.252 E0.0361
G1 X155.107 Y134.689 E0.0251
G1 X155.413 Y133.737 E0.0441
G1 X155.908 Y132.945 E0.0412
G1 X156.299 Y133.263 F4000
G1 X157.051 Y132.543 E0.0458 F2640
G1 X157.811 Y132.128 E0.0382
G1 X158.699 Y131.916 E0.0402
G1 X159.235 Y131.879 E0.0237
G1 X159.947 Y131.947 E0.0315
G1 X160.300 Y132.021 E0.0159
G1 X161.180 Y132.310 E0.0408
G1 X161.288 Y132.350 E0.0051
G1 X162.804 Y132.969 E0.0721
G1 X163.250 Y133.092 E0.0204
G1 X163.779 Y133.145 E0.0234
G1 X167.142 Y133.312 E0.1484
G1 X169.109 Y133.294 E0.0866
G1 X173.048 Y133.064 E0.1739
G1 X175.088 Y134.988 E0.1235
G1 X175.088 Y168.841 E1.4915
G1 X175.685 Y168.841 E0.0263
G1 X176.879 Y169.336 E0.0570
G1 X180.793 Y173.250 E0.2439
G1 X181.288 Y174.445 E0.0570
G1 X181.288 Y178.941 E0.1981
G1 X185.785 Y178.941 E0.1981
G1 X186.979 Y179.436 E0.0570
G1 X190.893 Y183.350 E0.2439
G1 X191.388 Y184.545 E0.0570
G1 X191.388 Y185.141 E0.0263
G1 X197.584 Y185.141 E0.2730
G1 X199.488 Y187.045 E0.1186
G1 X199.488 Y191.738 E0.2067
G1 X197.584 Y193.641 E0.1186
G1 X195.488 Y193.641 E0.0924
G1 X195.488 Y214.397 E0.9144
G1 X197.584 Y214.397 E0.0924
G1 X199.488 Y216.301 E0.1186
G1 X199.488 Y221.207 E0.2161
G1 X197.584 Y223.111 E0.1186
G1 X187.786 Y223.111 E0.4317
G1 X187.152 Y222.983 E0.0285
G1 X156.676 Y210.205 E1.4559
G1 X155.588 Y208.570 E0.0865
G1 X155.588 Y166.227 E1.8655
G1 X155.621 Y165.899 E0.0145
G1 X156.797 Y160.175 E0.2575
G1 X157.177 Y157.260 E0.1295
G1 X157.410 Y154.089 E0.1401
G1 X157.444 Y150.609 E0.1533
G1 X157.214 Y146.703 E0.1724
G1 X156.643 Y142.231 E0.1986
G1 X155.539 Y136.364 E0.2630
G1 X155.511 Y136.050 E0.0139
G1 X155.516 Y135.294 E0.0333
G1 X155.595 Y134.806 E0.0218
G1 X155.870 Y133.949 E0.0396
G1 X156.299 Y133.263 E0.0357
G1 X156.690 Y133.581 F4000
G1 X157.348 Y132.950 E0.0402 F2640
G1 X157.992 Y132.599 E0.0323
G1 X158.775 Y132.412 E0.0355
G1 X159.228 Y132.381 E0.0200
G1 X159.871 Y132.442 E0.0285
G1 X160.170 Y132.505 E0.0134
G1 X161.016 Y132.782 E0.0392
G1 X161.107 Y132.816 E0.0043
G1 X162.642 Y133.443 E0.0730
G1 X163.158 Y133.585 E0.0236
G1 X163.742 Y133.644 E0.0259
G1 X167.132 Y133.812 E0.1496
G1 X169.125 Y133.794 E0.0878
G1 X172.862 Y133.576 E0.1649
G1 X174.588 Y135.204 E0.1045
G1 X174.588 Y169.341 E1.5040
G1 X175.585 Y169.341 E0.0439
G1 X176.596 Y169.760 E0.0482
G1 X180.369 Y173.534 E0.2351
G1 X180.788 Y174.544 E0.0482
G1 X180.788 Y179.441 E0.2157
G1 X185.685 Y179.441 E0.2157
G1 X186.696 Y179.860 E0.0482
G1 X190.469 Y183.633 E0.2351
G1 X190.888 Y184.644 E0.0482
G1 X190.888 Y185.641 E0.0439
G1 X197.377 Y185.641 E0.2859
G1 X198.988 Y187.252 E0.1004
G1 X198.988 Y191.530 E0.1885
G1 X197.377 Y193.141 E0.1004
G1 X194.988 Y193.141 E0.1053
G1 X194.988 Y214.897 E0.9585
G1 X197.377 Y214.897 E0.1053
G1 X198.988 Y216.508 E0.1004
G1 X198.988 Y221.000 E0.1979
G1 X197.377 Y222.611 E0.1004
G1 X187.836 Y222.611 E0.4203
G1 X187.299 Y222.503 E0.0241
G1 X157.008 Y209.802 E1.4471
G1 X156.088 Y208.418 E0.0732
G1 X156.088 Y166.252 E1.8577
G1 X156.116 Y165.975 E0.0123
G1 X157.290 Y160.257 E0.2571
G1 X157.675 Y157.311 E0.1309
G1 X157.910 Y154.110 E0.1414
G1 X157.944 Y150.597 E0.1548
G1 X157.712 Y146.656 E0.1739
G1 X157.137 Y142.153 E0.2000
G1 X156.035 Y136.295 E0.2626
G1 X156.011 Y136.030 E0.0117
G1 X156.016 Y135.336 E0.0306
G1 X156.082 Y134.923 E0.0184
G1 X156.327 Y134.162 E0.0352
G1 X156.690 Y133.581 E0.0302
G1 X157.081 Y133.899 F4000
G1 X157.646 Y133.357 E0.0345 F2640
G1 X158.173 Y133.070 E0.0264
G1 X158.851 Y132.908 E0.0307
G1 X159.222 Y132.882 E0.0164
G1 X159.796 Y132.937 E0.0254
G1 X160.041 Y132.988 E0.0110
G1 X160.852 Y133.255 E0.0376
G1 X160.926 Y133.282 E0.0035
G1 X162.480 Y133.917 E0.0739
G1 X163.065 Y134.079 E0.0267
G1 X163.704 Y134.143 E0.0283
G1 X167.122 Y134.312 E0.1508
G1 X169.142 Y134.293 E0.0890
G1 X172.676 Y134.087 E0.1559
G1 X174.088 Y135.419 E0.0855
G1 X174.088 Y169.841 E1.5165
G1 X175.486 Y169.841 E0.0616
G1 X176.313 Y170.184 E0.0394
G1 X179.946 Y173.817 E0.2264
G1 X180.288 Y174.644 E0.0394
G1 X180.288 Y179.941 E0.2334
