; G-Code generated by Simplify3D(R) Version 4.0.0
; Jan 17, 2020 at 1:19:06 PM
; Settings Summary
;   processName,Process1
;   applyToModels,ZXGestureSensorMountSimple2.1
;   profileName,F400_0.4_ASA(2) (modified)
;   profileVersion,2019-07-09 15:25:06
;   baseProfile,F400_ABS
;   printMaterial,
;   printQuality,Standard
;   printExtruders,
;   extruderName,Primary Extruder
;   extruderToolheadNumber,0
;   extruderDiameter,0.4
;   extruderAutoWidth,0
;   extruderWidth,0.5
;   extrusionMultiplier,1
;   extruderUseRetract,1
;   extruderRetractionDistance,4
;   extruderExtraRestartDistance,0.05
;   extruderRetractionZLift,0.1
;   extruderRetractionSpeed,3600
;   extruderUseCoasting,0
;   extruderCoastingDistance,0.5
;   extruderUseWipe,0
;   extruderWipeDistance,5
;   primaryExtruder,0
;   layerHeight,0.2
;   topSolidLayers,5
;   bottomSolidLayers,5
;   perimeterOutlines,4
;   printPerimetersInsideOut,1
;   startPointOption,2
;   startPointOriginX,0
;   startPointOriginY,360
;   sequentialIslands,0
;   spiralVaseMode,0
;   firstLayerHeightPercentage,100
;   firstLayerWidthPercentage,100
;   firstLayerUnderspeed,0.4
;   useRaft,0
;   raftExtruder,0
;   raftTopLayers,2
;   raftBaseLayers,0
;   raftOffset,4
;   raftSeparationDistance,0.15
;   raftTopInfill,100
;   aboveRaftSpeedMultiplier,0.3
;   useSkirt,1
;   skirtExtruder,0
;   skirtLayers,1
;   skirtOutlines,10
;   skirtOffset,0
;   usePrimePillar,0
;   primePillarExtruder,999
;   primePillarWidth,12
;   primePillarLocation,7
;   primePillarSpeedMultiplier,1
;   useOozeShield,0
;   oozeShieldExtruder,999
;   oozeShieldOffset,2
;   oozeShieldOutlines,1
;   oozeShieldSidewallShape,1
;   oozeShieldSidewallAngle,30
;   oozeShieldSpeedMultiplier,1
;   infillExtruder,0
;   internalInfillPattern,Rectilinear
;   externalInfillPattern,Rectilinear
;   infillPercentage,33
;   outlineOverlapPercentage,30
;   infillExtrusionWidthPercentage,100
;   minInfillLength,5
;   infillLayerInterval,1
;   internalInfillAngles,45,-45
;   overlapInternalInfillAngles,0
;   externalInfillAngles,45,-45
;   generateSupport,1
;   supportExtruder,0
;   supportInfillPercentage,23
;   supportExtraInflation,0.5
;   supportBaseLayers,0
;   denseSupportExtruder,0
;   denseSupportLayers,0
;   denseSupportInfillPercentage,70
;   supportLayerInterval,1
;   supportHorizontalPartOffset,0.35
;   supportUpperSeparationLayers,1
;   supportLowerSeparationLayers,1
;   supportType,0
;   supportGridSpacing,2
;   maxOverhangAngle,45
;   supportAngles,0
;   temperatureName,Primary Extruder,Heated Bed
;   temperatureNumber,0,2
;   temperatureSetpointCount,1,1
;   temperatureSetpointLayers,1,1
;   temperatureSetpointTemperatures,245,100
;   temperatureStabilizeAtStartup,0,0
;   temperatureHeatedBed,0,1
;   temperatureRelayBetweenLayers,0,0
;   temperatureRelayBetweenLoops,0,0
;   fanLayers,1,7
;   fanSpeeds,0,10
;   blipFanToFullPower,0
;   adjustSpeedForCooling,1
;   minSpeedLayerTime,5
;   minCoolingSpeedSlowdown,20
;   increaseFanForCooling,1
;   minFanLayerTime,13
;   maxCoolingFanSpeed,70
;   increaseFanForBridging,0
;   bridgingFanSpeed,65
;   use5D,1
;   relativeEdistances,1
;   allowEaxisZeroing,1
;   independentExtruderAxes,0
;   includeM10123,0
;   stickySupport,1
;   applyToolheadOffsets,0
;   gcodeXoffset,0
;   gcodeYoffset,0
;   gcodeZoffset,-0.05
;   overrideMachineDefinition,1
;   machineTypeOverride,0
;   strokeXoverride,355
;   strokeYoverride,355
;   strokeZoverride,315
;   originOffsetXoverride,0
;   originOffsetYoverride,0
;   originOffsetZoverride,0
;   homeXdirOverride,1
;   homeYdirOverride,-1
;   homeZdirOverride,1
;   flipXoverride,1
;   flipYoverride,-1
;   flipZoverride,1
;   toolheadOffsets,0,0|0,0|0,0|0,0|0,0|0,0
;   overrideFirmwareConfiguration,1
;   firmwareTypeOverride,RepRap (Marlin/Repetier/Sprinter)
;   GPXconfigOverride,r2
;   baudRateOverride,115200
;   overridePrinterModels,0
;   printerModelsOverride
;   startingGcode,M104 S0 ;cancel S3D set temp,G21  ; set units to mm,G90  ; use absolute coordinates,T0  ; select tool 0,G92 E0.0  ; reset e count,M220 S100 ; reset speed multiplier,M140 S[bed2_temperature]  ; set bed temperature and do not wait,G28  ; home all axes,G1 X10 Y10 Z10 F4000,M190 S[bed2_temperature]  ; set bed temperature and wait,G32  ; probe bed ,M109 S[extruder0_temperature]  ; set print head temperature and wait,; === pause for heating ===,M42 P63 S0,G4 P50,G4 P50,M42 P63 S1,G1 Z10.0 F900  ; move up,G1 E30.0 F500  ; prime extruder,G1 Y15 F9000  ; move back,G1 Z0.2 F1000  ; move down to begin wipe,G1 X110 E4.0 F10000  ; wipe print head (extrude material while we do this),G92 E0.0  ; reset e count
;   layerChangeGcode,
;   retractionGcode,
;   toolChangeGcode,
;   endingGcode,G91  ;relative positioning,G1 E-5.00 F1000  ;retract 5mm of filament,G1 Z+1.00 X-20.0 Y+20.0 F20000  ;short quick move to disengage from print,G90  ;absolute positioning,G1 X0.0 Y345.0 F9000  ; move head to back left corner,G91  ; relative positioning,G1 E-5.00 F500  ;retract additional filament to prevent oozing,G90 ;absolute positioning,M104 S0  ;turn off hotend,M140 S0  ;turn off heatbed,M42 P63 S0,G4 P50,G4 P50,M42 P63 S1,G1 Z315 F1000 ;move print bed down to idle position,M106 S0  ; shut off blower,M84  ;motors off,M561  ;clear bed probe transformation
;   exportFileFormat,gcode
;   celebration,0
;   celebrationSong,Random Song
;   postProcessing,
;   defaultSpeed,6600
;   outlineUnderspeed,0.7
;   solidInfillUnderspeed,0.7
;   supportUnderspeed,1
;   rapidXYspeed,4000
;   rapidZspeed,6800
;   minBridgingArea,50
;   bridgingExtraInflation,0
;   bridgingExtrusionMultiplier,0.9
;   bridgingSpeedMultiplier,0.6
;   useFixedBridgingAngle,0
;   fixedBridgingAngle,0
;   applyBridgingToPerimeters,0
;   filamentDiameters,1.7|1.7|1.7|1.7|1.7|1.7
;   filamentPricesPerKg,46|46|46|46|46|46
;   filamentDensities,1.25|1.25|1.25|1.25|1.25|1.25
;   useMinPrintHeight,0
;   minPrintHeight,13
;   useMaxPrintHeight,0
;   maxPrintHeight,13
;   useDiaphragm,0
;   diaphragmLayerInterval,20
;   robustSlicing,1
;   mergeAllIntoSolid,0
;   onlyRetractWhenCrossingOutline,1
;   retractBetweenLayers,0
;   useRetractionMinTravel,0
;   retractionMinTravel,1
;   retractWhileWiping,0
;   onlyWipeOutlines,1
;   avoidCrossingOutline,0
;   maxMovementDetourFactor,3
;   toolChangeRetractionDistance,0
;   toolChangeExtraRestartDistance,0
;   toolChangeRetractionSpeed,360
;   externalThinWallType,1
;   internalThinWallType,1
;   thinWallAllowedOverlapPercentage,50
;   singleExtrusionMinLength,1
;   singleExtrusionMinPrintingWidthPercentage,50
;   singleExtrusionMaxPrintingWidthPercentage,200
;   singleExtrusionEndpointExtension,0.2
;   horizontalSizeCompensation,0
G90
M83
M106 S0
M104 S0 ;cancel S3D set temp
G21  ; set units to mm
G90  ; use absolute coordinates
T0  ; select tool 0
G92 E0.0  ; reset e count
M220 S100 ; reset speed multiplier
M140 S100  ; set bed temperature and do not wait
G28  ; home all axes
G1 X10 Y10 Z10 F4000
M190 S100  ; set bed temperature and wait
G32  ; probe bed 
M109 S245  ; set print head temperature and wait
; === pause for heating ===
M42 P63 S0
G4 P50
G4 P50
M42 P63 S1
G1 Z10.0 F900  ; move up
G1 E30.0 F500  ; prime extruder
G1 Y15 F9000  ; move back
G1 Z0.2 F1000  ; move down to begin wipe
G1 X110 E4.0 F10000  ; wipe print head (extrude material while we do this)
G92 E0.0  ; reset e count
G1 E-4.0000 F3600
G1 Z0.250 F6800
; process Process1
; layer 1, Z = 0.200
T0
; tool H0.200 W0.500
; skirt
G1 X144.550 Y58.951 F4000
G1 Z0.150 F6800
G1 E4.0500 F1080
G1 X147.332 Y56.169 E0.1734 F2640
G1 X164.267 Y56.169 E0.7461
G1 X167.050 Y58.951 E0.1734
G1 X167.050 Y62.119 E0.1396
G1 X168.191 Y62.592 E0.0544
G1 X172.527 Y66.928 E0.2702
G1 X173.250 Y68.674 E0.0833
G1 X173.250 Y71.969 E0.1452
G1 X176.545 Y71.969 E0.1452
G1 X178.291 Y72.692 E0.0833
G1 X182.627 Y77.030 E0.2702
G1 X183.099 Y78.169 E0.0543
G1 X188.668 Y78.169 E0.2453
G1 X191.450 Y80.951 E0.1734
G1 X191.450 Y86.886 E0.2615
G1 X188.668 Y89.669 E0.1734
G1 X187.450 Y89.669 E0.0536
G1 X187.450 Y107.425 E0.7823
G1 X188.668 Y107.425 E0.0536
G1 X191.450 Y110.207 E0.1734
G1 X191.450 Y116.356 E0.2709
G1 X188.668 Y119.138 E0.1734
G1 X178.099 Y119.138 E0.4656
G1 X177.172 Y118.951 E0.0417
G1 X146.140 Y105.940 E1.4825
G1 X144.550 Y103.550 E0.1265
G1 X144.550 Y58.951 E1.9649
G1 X145.050 Y59.158 F4000
G1 X147.540 Y56.669 E0.1551 F2640
G1 X164.060 Y56.669 E0.7278
G1 X166.550 Y59.158 E0.1551
G1 X166.550 Y62.453 E0.1452
G1 X167.907 Y63.016 E0.0647
G1 X172.103 Y67.211 E0.2614
G1 X172.750 Y68.773 E0.0745
G1 X172.750 Y72.469 E0.1628
G1 X176.446 Y72.469 E0.1628
G1 X178.008 Y73.116 E0.0745
G1 X182.203 Y77.313 E0.2614
G1 X182.765 Y78.669 E0.0646
G1 X188.460 Y78.669 E0.2509
G1 X190.950 Y81.158 E0.1551
G1 X190.950 Y86.679 E0.2432
G1 X188.460 Y89.169 E0.1551
G1 X186.950 Y89.169 E0.0665
G1 X186.950 Y107.925 E0.8263
G1 X188.460 Y107.925 E0.0665
G1 X190.950 Y110.414 E0.1551
G1 X190.950 Y116.148 E0.2526
G1 X188.460 Y118.638 E0.1551
G1 X178.149 Y118.638 E0.4543
G1 X177.319 Y118.471 E0.0373
G1 X146.472 Y105.538 E1.4736
G1 X145.050 Y103.399 E0.1132
G1 X145.050 Y59.158 E1.9491
G1 X145.550 Y59.365 F4000
G1 X147.747 Y57.169 E0.1369 F2640
G1 X163.853 Y57.169 E0.7096
G1 X166.050 Y59.365 E0.1369
G1 X166.050 Y62.869 E0.1543
G1 X166.246 Y62.869 E0.0086
G1 X167.624 Y63.440 E0.0657
G1 X171.679 Y67.495 E0.2526
G1 X172.250 Y68.873 E0.0657
G1 X172.250 Y72.969 E0.1805
G1 X176.346 Y72.969 E0.1805
G1 X177.725 Y73.540 E0.0657
G1 X181.779 Y77.596 E0.2527
G1 X182.350 Y78.974 E0.0657
G1 X182.350 Y79.169 E0.0086
G1 X188.253 Y79.169 E0.2601
G1 X190.450 Y81.365 E0.1369
G1 X190.450 Y86.472 E0.2250
G1 X188.253 Y88.669 E0.1369
G1 X186.450 Y88.669 E0.0794
G1 X186.450 Y108.425 E0.8704
G1 X188.253 Y108.425 E0.0794
G1 X190.450 Y110.621 E0.1369
G1 X190.450 Y115.941 E0.2344
G1 X188.253 Y118.138 E0.1369
G1 X178.199 Y118.138 E0.4430
G1 X177.466 Y117.991 E0.0329
G1 X146.805 Y105.135 E1.4648
G1 X145.550 Y103.248 E0.0998
G1 X145.550 Y59.365 E1.9333
G1 X146.050 Y59.573 F4000
G1 X147.954 Y57.669 E0.1186 F2640
G1 X163.646 Y57.669 E0.6913
G1 X165.550 Y59.572 E0.1186
G1 X165.550 Y63.369 E0.1672
G1 X166.146 Y63.369 E0.0263
G1 X167.341 Y63.863 E0.0570
G1 X171.255 Y67.778 E0.2439
G1 X171.750 Y68.972 E0.0570
G1 X171.750 Y73.469 E0.1981
G1 X176.247 Y73.469 E0.1981
G1 X177.441 Y73.964 E0.0570
G1 X181.355 Y77.879 E0.2439
G1 X181.850 Y79.074 E0.0569
G1 X181.850 Y79.669 E0.0262
G1 X188.046 Y79.669 E0.2730
G1 X189.950 Y81.573 E0.1186
G1 X189.950 Y86.265 E0.2067
G1 X188.046 Y88.169 E0.1186
G1 X185.950 Y88.169 E0.0924
G1 X185.950 Y108.925 E0.9144
G1 X188.046 Y108.925 E0.0924
G1 X189.950 Y110.829 E0.1186
G1 X189.950 Y115.734 E0.2161
G1 X188.046 Y117.638 E0.1186
G1 X178.248 Y117.638 E0.4317
G1 X177.614 Y117.510 E0.0285
G1 X147.138 Y104.732 E1.4559
G1 X146.050 Y103.097 E0.0865
G1 X146.050 Y59.573 E1.9175
G1 X146.550 Y59.780 F4000
G1 X148.161 Y58.169 E0.1004 F2640
G1 X163.439 Y58.169 E0.6731
G1 X165.050 Y59.780 E0.1004
G1 X165.050 Y63.869 E0.1802
G1 X166.047 Y63.869 E0.0439
G1 X167.058 Y64.287 E0.0482
G1 X170.831 Y68.061 E0.2351
G1 X171.250 Y69.072 E0.0482
G1 X171.250 Y73.969 E0.2157
G1 X176.147 Y73.969 E0.2158
G1 X177.158 Y74.388 E0.0482
G1 X180.932 Y78.162 E0.2352
G1 X181.350 Y79.173 E0.0482
G1 X181.350 Y80.169 E0.0439
G1 X187.839 Y80.169 E0.2859
G1 X189.450 Y81.780 E0.1004
G1 X189.450 Y86.058 E0.1885
G1 X187.839 Y87.669 E0.1004
G1 X185.450 Y87.669 E0.1053
G1 X185.450 Y109.425 E0.9585
G1 X187.839 Y109.425 E0.1053
G1 X189.450 Y111.036 E0.1004
G1 X189.450 Y115.527 E0.1979
G1 X187.839 Y117.138 E0.1004
G1 X178.298 Y117.138 E0.4203
G1 X177.761 Y117.030 E0.0241
G1 X147.470 Y104.330 E1.4471
G1 X146.550 Y102.946 E0.0732
G1 X146.550 Y59.780 E1.9018
G1 X147.050 Y59.987 F4000
G1 X148.368 Y58.669 E0.0821 F2640
G1 X163.232 Y58.669 E0.6549
G1 X164.550 Y59.987 E0.0821
G1 X164.550 Y64.369 E0.1931
G1 X165.948 Y64.369 E0.0616
G1 X166.775 Y64.711 E0.0394
G1 X170.407 Y68.344 E0.2264
G1 X170.750 Y69.171 E0.0394
G1 X170.750 Y74.469 E0.2334
G1 X176.048 Y74.469 E0.2334
G1 X176.875 Y74.811 E0.0394
G1 X180.508 Y78.446 E0.2264
G1 X180.850 Y79.272 E0.0394
G1 X180.850 Y80.669 E0.0615
G1 X187.632 Y80.669 E0.2988
G1 X188.950 Y81.987 E0.0821
G1 X188.950 Y85.851 E0.1702
G1 X187.632 Y87.169 E0.0821
G1 X184.950 Y87.169 E0.1182
G1 X184.950 Y109.925 E1.0026
G1 X187.632 Y109.925 E0.1182
G1 X188.950 Y111.243 E0.0821
G1 X188.950 Y115.320 E0.1796
G1 X187.632 Y116.638 E0.0821
G1 X178.348 Y116.638 E0.4090
G1 X177.909 Y116.550 E0.0197
G1 X147.803 Y103.927 E1.4382
G1 X147.050 Y102.795 E0.0599
G1 X147.050 Y59.987 E1.8860
G1 X147.550 Y60.194 F4000
G1 X148.575 Y59.169 E0.0639 F2640
G1 X163.025 Y59.169 E0.6366
G1 X164.050 Y60.194 E0.0639
G1 X164.050 Y64.894 E0.2071
G1 X164.075 Y64.869 E0.0016
G1 X165.848 Y64.869 E0.0781
G1 X166.491 Y65.135 E0.0307
G1 X169.984 Y68.627 E0.2176
G1 X170.250 Y69.271 E0.0307
G1 X170.250 Y74.969 E0.2510
G1 X175.948 Y74.969 E0.2510
G1 X176.591 Y75.235 E0.0307
G1 X180.084 Y78.729 E0.2176
G1 X180.350 Y79.372 E0.0307
G1 X180.350 Y81.144 E0.0781
G1 X180.325 Y81.169 E0.0016
G1 X187.425 Y81.169 E0.3128
G1 X188.450 Y82.194 E0.0639
G1 X188.450 Y85.644 E0.1520
G1 X187.425 Y86.669 E0.0639
G1 X184.450 Y86.669 E0.1311
G1 X184.450 Y110.425 E1.0466
G1 X187.425 Y110.425 E0.1311
G1 X188.450 Y111.450 E0.0639
G1 X188.450 Y115.113 E0.1614
G1 X187.425 Y116.138 E0.0639
G1 X178.398 Y116.138 E0.3977
G1 X178.056 Y116.069 E0.0154
G1 X148.136 Y103.524 E1.4294
G1 X147.550 Y102.644 E0.0466
G1 X147.550 Y60.194 E1.8702
G1 E-4.0000 F3600
G1 Z0.250 F6800
G1 X164.050 Y80.144 F4000
G1 Z0.150 F6800
G1 E4.0500 F3600
G1 X164.050 Y81.169 E0.0452 F2640
G1 X165.075 Y81.169 E0.0452
G1 X165.050 Y81.144 E0.0016
G1 X165.050 Y80.169 E0.0429
G1 X164.075 Y80.169 E0.0429
G1 X164.050 Y80.144 E0.0016
G1 X164.282 Y79.669 F4000
G1 X163.550 Y78.936 E0.0456 F2640
G1 X163.550 Y81.669 E0.1204
G1 X168.550 Y81.669 E0.2203
G1 X166.282 Y81.669 E0.0999
G1 X165.550 Y80.936 E0.0456
G1 X165.550 Y79.669 E0.0559
G1 X164.282 Y79.669 E0.0559
G1 X169.750 Y75.469 F4000
G1 X175.849 Y75.469 E0.2687 F2640
G1 X176.308 Y75.659 E0.0219
G1 X179.660 Y79.012 E0.2089
G1 X179.850 Y79.471 E0.0219
G1 X179.850 Y80.936 E0.0646
G1 X179.118 Y81.669 E0.0456
G1 X176.850 Y81.669 E0.0999
G1 X187.218 Y81.669 E0.4568
G1 X187.950 Y82.401 E0.0456
G1 X187.950 Y85.436 E0.1337
G1 X187.218 Y86.169 E0.0456
G1 X183.950 Y86.169 E0.1440
G1 X183.950 Y110.925 E1.0907
G1 X187.218 Y110.925 E0.1440
G1 X187.950 Y111.657 E0.0456
G1 X187.950 Y114.906 E0.1431
G1 X187.218 Y115.638 E0.0456
G1 X178.448 Y115.638 E0.3864
G1 X178.203 Y115.589 E0.0110
G1 X148.468 Y103.122 E1.4205
G1 X148.050 Y102.493 E0.0333
G1 X148.050 Y60.401 E1.8544
G1 X148.782 Y59.669 E0.0456
G1 X162.818 Y59.669 E0.6184
G1 X163.550 Y60.401 E0.0456
G1 X163.550 Y68.369 E0.3510
G1 X163.550 Y66.101 E0.0999
G1 X164.282 Y65.369 E0.0456
G1 X165.749 Y65.369 E0.0646
G1 X166.208 Y65.559 E0.0219
G1 X169.560 Y68.911 E0.2088
G1 X169.750 Y69.370 E0.0219
G1 X169.750 Y75.469 E0.2687
G1 X169.651 Y75.969 F4000
G1 X175.749 Y75.969 E0.2687 F2640
G1 X176.025 Y76.083 E0.0131
G1 X179.236 Y79.295 E0.2001
G1 X179.350 Y79.571 E0.0131
G1 X179.350 Y80.729 E0.0510
G1 X178.911 Y81.169 E0.0274
G1 X176.350 Y81.169 E0.1128
G1 X176.350 Y82.169 E0.0441
G1 X187.011 Y82.169 E0.4697
G1 X187.450 Y82.608 E0.0274
G1 X187.450 Y85.229 E0.1155
G1 X187.011 Y85.669 E0.0274
G1 X183.450 Y85.669 E0.1569
G1 X183.450 Y111.425 E1.1347
G1 X187.011 Y111.425 E0.1569
G1 X187.450 Y111.864 E0.0274
G1 X187.450 Y114.699 E0.1249
G1 X187.011 Y115.138 E0.0274
G1 X178.497 Y115.138 E0.3751
G1 X178.351 Y115.109 E0.0066
G1 X148.801 Y102.719 E1.4117
G1 X148.550 Y102.341 E0.0200
G1 X148.550 Y60.608 E1.8386
G1 X148.989 Y60.169 E0.0274
G1 X162.611 Y60.169 E0.6001
G1 X163.050 Y60.608 E0.0274
G1 X163.050 Y68.869 E0.3639
G1 X164.050 Y68.869 E0.0441
G1 X164.050 Y66.308 E0.1128
G1 X164.489 Y65.869 E0.0274
G1 X165.649 Y65.869 E0.0511
G1 X165.925 Y65.983 E0.0131
G1 X169.136 Y69.194 E0.2001
G1 X169.250 Y69.470 E0.0131
G1 X169.250 Y75.568 E0.2687
G1 X169.136 Y75.844 E0.0131
G1 X165.924 Y79.055 E0.2001
G1 X165.648 Y79.169 E0.0131
G1 X164.489 Y79.169 E0.0510
